(File created: Wednesday December 10 2025 - 08:37 AM)
(for Carvera from Vectric)
(VECTRIC POST REVISION)
(AA6001CAC4E9696A3EC4F9B49CBCFB6D)
G90G54
G17
G21

T1M6
G0Z20.320
G0X0.000Y0.000
S10000M3
G0X63.460Y0.001
G0Z5.080
G1Z-1.000F300.0
G1X0.040F1000.0
X0.004Y0.004
X0.000Y0.058
Y2.224
X63.500
Y4.446
X0.000
Y6.669
X63.500
Y8.891
X0.000
Y11.114
X63.500
Y13.336
X0.000
Y15.559
X63.500
Y17.781
X0.000
Y20.004
X63.500
Y22.226
X0.000
Y24.449
X63.500
Y26.671
X0.000
Y28.894
X43.256
X43.253Y28.902
X43.214Y29.104
X43.201Y29.308
Y29.727
X43.174Y29.822
X43.106Y30.020
X43.064Y30.226
X43.050Y30.435
Y30.553
X43.023Y30.648
X42.961Y30.825
X42.920Y31.008
X42.909Y31.116
X0.000
Y33.339
X40.372
X40.318Y33.504
X40.253Y33.691
X40.212Y33.884
X40.161Y34.058
X40.130Y34.237
X40.120Y34.418
Y34.944
X40.124Y35.057
X40.120Y35.136
X40.074Y35.316
X40.049Y35.499
X40.031Y35.561
X35.963
X36.071Y35.617
X36.248Y35.743
X36.404Y35.888
X36.479Y35.964
X36.554Y36.039
X36.629Y36.114
X36.704Y36.189
X36.858Y36.355
X36.988Y36.542
X37.089Y36.746
X37.160Y36.961
X37.228Y37.159
X37.269Y37.365
X37.283Y37.574
Y37.784
X39.343
X39.339Y37.792
X39.275Y37.977
X39.235Y38.168
X39.160Y38.468
X39.109Y38.642
X39.078Y38.821
X39.068Y39.002
Y39.528
X39.078Y39.709
X39.109Y39.888
X39.144Y40.006
X37.089
X37.115Y40.122
X37.184Y40.384
X37.307Y40.709
X37.389Y40.878
X37.450Y41.056
X37.490Y41.241
X37.507Y41.428
X37.642Y41.564
X37.757Y41.675
X37.832Y41.750
X37.907Y41.825
X37.982Y41.900
X38.057Y41.975
X38.132Y42.051
X38.141Y42.059
X38.329Y42.158
X38.429Y42.229
X40.162
X40.166Y42.241
X40.252Y42.416
X40.327Y42.566
X40.426Y42.758
X40.551Y42.934
X40.698Y43.092
X40.773Y43.167
X40.848Y43.242
X40.856Y43.251
X40.951Y43.432
X41.067Y43.599
X41.078Y43.618
X41.166Y43.790
X41.273Y43.950
X41.339Y44.194
X41.380Y44.385
X41.402Y44.451
X39.537
Y44.638
X39.518Y44.883
X39.462Y45.122
X39.446Y45.317
X39.485Y45.357
X39.560Y45.432
X39.635Y45.507
X39.710Y45.583
X39.786Y45.658
X39.861Y45.733
X39.936Y45.808
X40.011Y45.883
X40.086Y45.958
X40.202Y46.079
X40.305Y46.211
X40.393Y46.353
X40.534Y46.562
X40.701Y46.674
G0Z5.080
G0X34.074Y35.561
G1Z-1.000F300.0
G1X28.705F1000.0
X28.656Y35.516
X28.480Y35.391
X28.288Y35.292
X28.105Y35.203
X27.910Y35.137
X27.708Y35.098
X27.504Y35.085
X27.310
X27.072Y35.028
X26.828Y35.010
X26.527
X26.324Y35.023
X26.122Y35.062
X25.927Y35.128
X25.743Y35.217
X25.552Y35.316
X25.375Y35.441
X25.246Y35.561
X0.000
Y37.784
X24.263
Y37.799
X24.277Y38.008
X24.319Y38.215
X24.387Y38.413
X24.453Y38.616
X24.546Y38.809
X24.621Y38.959
X24.720Y39.151
X24.845Y39.327
X24.992Y39.485
X25.067Y39.560
X25.142Y39.635
X25.217Y39.710
X25.293Y39.786
X25.368Y39.861
X25.391Y39.885
Y40.006
X0.000
Y42.229
X16.848
X16.801Y42.276
X16.654Y42.434
X16.529Y42.610
X16.430Y42.802
X16.355Y42.952
X16.233Y43.223
X16.125Y43.328
X16.049Y43.403
X15.933Y43.524
X15.831Y43.656
X15.743Y43.798
X15.609Y43.994
X15.505Y44.209
X15.435Y44.436
X15.427Y44.451
X0.000
Y46.674
X12.781
X12.780Y46.680
X12.766Y46.892
Y47.193
X12.779Y47.397
X12.818Y47.598
X12.884Y47.793
X12.973Y47.977
X13.072Y48.168
X13.197Y48.345
X13.344Y48.503
X13.502Y48.650
X13.678Y48.775
X13.870Y48.874
X13.913Y48.896
X0.000
Y51.119
G0Z5.080
G0X26.151Y48.896
G1Z-1.000F300.0
G1X28.998F1000.0
X26.151
X26.105Y49.027
X26.004Y49.222
X25.878Y49.399
X25.733Y49.555
X25.577Y49.700
X25.400Y49.826
X25.205Y49.927
X24.999Y50.000
X24.786Y50.044
X24.573Y50.058
X24.273
X24.060Y50.044
X23.847Y50.000
X23.641Y49.927
X23.446Y49.826
X23.269Y49.700
X23.113Y49.555
X23.038Y49.480
X22.963Y49.404
X22.834Y49.268
X22.721Y49.117
X22.626Y48.953
X22.602Y48.896
X17.678
G0Z5.080
G0X0.000Y51.119
G1Z-1.000F300.0
G1X32.905F1000.0
Y50.650
X32.942Y50.312
X32.872Y50.381
X32.693Y50.546
X32.489Y50.682
X32.268Y50.784
X32.046Y50.903
X31.862Y50.992
X31.667Y51.057
X31.465Y51.097
X31.262Y51.110
X30.811
X30.607Y51.097
X30.405Y51.057
X30.210Y50.992
X30.027Y50.903
X29.819Y50.793
X29.626Y50.652
X29.456Y50.482
X29.314Y50.289
X29.205Y50.081
X29.116Y49.898
X29.050Y49.703
X29.011Y49.501
X28.998Y49.297
Y48.896
Y49.297
X29.011Y49.501
X29.050Y49.703
X29.116Y49.898
X29.205Y50.081
X29.314Y50.289
X29.456Y50.482
X29.626Y50.652
X29.819Y50.793
X30.027Y50.903
X30.210Y50.992
X30.405Y51.057
X30.607Y51.097
X30.811Y51.110
X31.262
X31.465Y51.097
X31.667Y51.057
X31.862Y50.992
X32.046Y50.903
X32.268Y50.784
X32.489Y50.682
X32.693Y50.546
X32.872Y50.381
X32.942Y50.312
X32.905Y50.650
Y51.119
X0.000
Y53.341
X33.610
G0Z5.080
G0X30.952Y37.784
G1Z-1.000F300.0
G1X32.830F1000.0
Y38.776
X32.849Y39.021
X32.905Y39.259
Y39.380
X32.887Y39.420
X32.812Y39.570
X32.719Y39.763
X32.653Y39.967
X32.640Y40.006
X31.350
G0Z5.080
G0X48.844Y28.894
G1Z-1.000F300.0
G1X63.500F1000.0
Y31.116
X49.898
X49.908Y31.262
Y31.788
X49.895Y31.991
X49.855Y32.193
X49.790Y32.388
X49.700Y32.572
X49.601Y32.763
X49.476Y32.940
X49.329Y33.097
X49.164Y33.251
X49.037Y33.339
X63.500
Y35.561
X48.630
Y36.071
X48.616Y36.284
X48.572Y36.496
X48.499Y36.703
X48.398Y36.898
X48.272Y37.075
X48.127Y37.230
X48.052Y37.306
X47.899Y37.449
X47.728Y37.571
Y37.784
X63.500
Y40.006
X46.935
X46.964Y40.151
X46.977Y40.354
Y40.805
X46.963Y41.014
X46.922Y41.221
X46.854Y41.419
X46.783Y41.633
X46.682Y41.837
X46.552Y42.025
X46.399Y42.190
X46.360Y42.229
X63.500
Y44.451
X45.687
G0Z5.080
G0X40.701Y46.674
G1Z-1.000F300.0
G1X63.500F1000.0
Y48.896
X41.639
X41.641Y48.921
Y49.222
X41.622Y49.467
X41.566Y49.706
X41.549Y49.903
X41.508Y50.099
X41.443Y50.286
X41.390Y50.457
X41.317Y50.620
X41.266Y50.832
Y50.950
X41.253Y51.119
X63.500
Y53.341
X37.669
X37.658Y53.388
X37.642Y53.583
X37.602Y53.776
X37.537Y53.963
X37.451Y54.139
X37.352Y54.330
X37.227Y54.507
X37.080Y54.665
X37.005Y54.740
X36.849Y54.885
X36.672Y55.011
X36.478Y55.112
X36.271Y55.185
X36.058Y55.229
X35.846Y55.243
X35.620
X35.407Y55.229
X35.195Y55.185
X34.988Y55.112
X34.794Y55.011
X34.616Y54.885
X34.461Y54.740
X34.385Y54.665
X34.310Y54.590
X34.235Y54.515
X34.088Y54.357
X33.963Y54.180
X33.864Y53.989
X33.789Y53.839
X33.703Y53.663
X33.639Y53.478
X33.610Y53.341
G0Z5.080
G0X0.000Y55.564
G1Z-1.000F300.0
G1X63.500F1000.0
Y57.786
X0.000
Y60.009
X63.500
Y62.231
X0.000
Y64.454
X63.500
Y66.676
X0.000
Y68.899
X63.500
Y71.121
X0.000
Y73.344
X63.500
Y75.566
X0.000
Y77.789
X63.500
Y80.011
X0.000
Y82.234
X63.500
Y84.456
X0.000
Y86.678
X63.500
Y88.842
X63.496Y88.896
X63.460Y88.899
X0.040
G0Z5.080
G0X15.143Y45.080
G1Z-1.000F300.0
G1X15.105Y45.079F1000.0
X14.804
G2X14.271Y45.172I0.000J1.588
G2X13.344Y45.658I0.233J1.570
G1X13.269Y45.733
G2X12.766Y46.892I1.084J1.159
G1Y47.193
G2X12.973Y47.977I1.588J0.000
G2X13.344Y48.503I1.455J-0.634
G2X13.870Y48.874I1.159J-1.084
G1X13.987Y48.934
X14.100Y49.179
G2X14.922Y50.001I1.455J-0.634
G2X15.706Y50.208I0.784J-1.380
G1X15.931
G2X17.091Y49.705I0.000J-1.587
G1X17.166Y49.630
G2X17.473Y49.235I-1.084J-1.159
G2X17.802Y48.478I-1.241J-0.990
G1X17.890Y48.068
X18.003Y48.122
X18.399Y48.281
G2X19.012Y48.405I0.613J-1.464
G1X19.538
X19.801Y48.383
X20.064Y48.405
X20.108
G2X20.591Y48.480I0.483J-1.512
G1X20.741
G2X21.274Y48.388I0.000J-1.588
G2X22.319Y48.780I1.045J-1.195
G1X22.544
X22.553Y48.780
G2X22.963Y49.404I1.494J-0.535
G1X23.038Y49.480
X23.113Y49.555
G2X24.273Y50.058I1.159J-1.084
G1X24.573
G2X25.733Y49.555I0.000J-1.588
G2X26.236Y48.395I-1.084J-1.159
G1Y48.387
G2X27.128Y47.935I-0.235J-1.570
G1X27.171Y47.977
X27.246Y48.052
X27.322Y48.127
G2X28.481Y48.630I1.159J-1.084
G1X28.857
X28.998Y48.624
Y49.297
G2X29.205Y50.081I1.587J0.000
G2X30.027Y50.903I1.455J-0.634
G2X30.811Y51.110I0.784J-1.380
G1X31.262
G2X32.046Y50.903I0.000J-1.587
G1X32.268Y50.784
G2X32.872Y50.381I-0.556J-1.487
G1X32.942Y50.312
X32.905Y50.650
Y51.551
G2X33.029Y52.165I1.588J0.000
G1X33.188Y52.561
X33.263Y52.711
X33.338Y52.862
G2X33.591Y53.264I1.455J-0.634
G1X33.599Y53.287
G2X33.789Y53.839I1.570J-0.233
G1X33.864Y53.989
G2X34.235Y54.515I1.455J-0.634
G1X34.310Y54.590
X34.385Y54.665
X34.461Y54.740
G2X35.620Y55.243I1.159J-1.084
G1X35.846
G2X37.005Y54.740I0.000J-1.588
G1X37.080Y54.665
G2X37.451Y54.139I-1.084J-1.159
G2X37.658Y53.388I-1.380J-0.784
G2X37.734Y52.904I-1.512J-0.484
G1Y52.528
G2X37.654Y52.031I-1.587J0.000
G1X37.621Y51.807
X37.697Y51.960
X37.772Y52.110
G2X38.143Y52.636I1.455J-0.634
G2X39.302Y53.139I1.159J-1.084
G1X39.528
G2X40.687Y52.636I0.000J-1.587
G2X41.190Y51.476I-1.084J-1.159
G1Y51.433
G2X41.266Y50.950I-1.512J-0.483
G1Y50.832
X41.317Y50.620
X41.443Y50.286
G2X41.566Y49.706I-1.464J-0.613
G2X41.641Y49.222I-1.512J-0.484
G1Y48.921
G2X41.566Y48.439I-1.588J0.000
G1Y48.320
G2X41.443Y47.707I-1.588J0.000
G2X40.988Y46.935I-1.539J0.388
G1X40.913Y46.860
G2X40.534Y46.562I-1.159J1.084
G1X40.393Y46.353
G2X40.086Y45.958I-1.391J0.765
G1X40.011Y45.883
X39.936Y45.808
X39.861Y45.733
X39.786Y45.658
X39.710Y45.583
X39.635Y45.507
X39.560Y45.432
X39.485Y45.357
X39.446Y45.317
X39.462Y45.122
G2X39.537Y44.638I-1.512J-0.484
G1Y44.262
G2X39.457Y43.765I-1.588J0.000
G2X38.959Y42.727I-1.583J0.121
G1X38.884Y42.652
X38.809Y42.577
X38.733Y42.501
X38.658Y42.426
G2X38.141Y42.059I-1.159J1.084
G1X38.132Y42.051
X38.057Y41.975
X37.982Y41.900
X37.907Y41.825
X37.832Y41.750
X37.757Y41.675
X37.642Y41.564
X37.507Y41.428
G2X37.307Y40.709I-1.587J0.054
G1X37.184Y40.384
X37.115Y40.122
X37.057Y39.872
Y39.635
G2X37.132Y39.152I-1.512J-0.483
G1Y39.109
G2X37.208Y38.626I-1.512J-0.483
G1Y38.583
G2X37.283Y38.100I-1.512J-0.483
G1Y37.574
G2X37.160Y36.961I-1.588J0.000
G2X36.704Y36.189I-1.539J0.388
G1X36.629Y36.114
X36.554Y36.039
X36.479Y35.964
X36.404Y35.888
G2X35.244Y35.385I-1.159J1.084
G1X34.793
G2X34.009Y35.592I0.000J1.588
G2X33.484Y35.964I0.634J1.455
G2X33.113Y36.489I1.084J1.159
G1X33.037Y36.640
G2X32.830Y37.424I1.380J0.784
G1Y38.776
G2X32.905Y39.259I1.588J0.000
G1Y39.380
X32.887Y39.420
X32.812Y39.570
X32.653Y39.967
X32.578Y40.192
X32.505Y40.408
X32.352Y40.793
X32.277Y41.019
X32.225Y41.161
X31.981Y41.374
X31.941Y41.413
X31.855Y41.023
G2X31.665Y40.472I-1.570J0.233
G2X31.294Y39.946I-1.455J0.634
G1X31.219Y39.871
X31.045Y39.712
Y39.302
G2X30.953Y38.769I-1.588J0.000
G1X30.905Y38.551
G2X30.970Y38.100I-1.522J-0.451
G1Y38.025
G2X30.895Y37.541I-1.587J0.000
G2X30.688Y36.790I-1.587J0.033
G2X30.317Y36.264I-1.455J0.634
G2X29.791Y35.893I-1.159J1.084
G2X29.007Y35.686I-0.784J1.380
G1X28.838
X28.814Y35.663
G2X28.288Y35.292I-1.159J1.084
G2X27.504Y35.085I-0.784J1.380
G1X27.310
G2X26.828Y35.010I-0.483J1.512
G1X26.527
G2X25.743Y35.217I0.000J1.588
G2X25.217Y35.588I0.634J1.455
G1X25.142Y35.663
X25.067Y35.738
X24.992Y35.813
X24.917Y35.888
G2X24.546Y36.414I1.084J1.159
G1X24.387Y36.810
G2X24.263Y37.424I1.464J0.613
G1Y37.799
G2X24.387Y38.413I1.588J0.000
G1X24.546Y38.809
X24.621Y38.959
G2X24.992Y39.485I1.455J-0.634
G1X25.067Y39.560
X25.142Y39.635
X25.217Y39.710
X25.293Y39.786
X25.368Y39.861
X25.391Y39.885
Y40.357
X25.372Y40.397
X25.297Y40.547
X25.254Y40.629
G2X24.348Y40.345I-0.906J1.304
G1X23.822
G2X22.662Y40.848I0.000J1.588
G1X22.587Y40.923
X22.512Y40.999
X22.437Y41.074
X22.243Y41.292
X21.868Y41.247
X21.492
G2X20.333Y41.750I0.000J1.588
G1X20.258Y41.825
X20.183Y41.900
X20.107Y41.975
X20.062Y42.019
X19.777Y41.819
G2X18.787Y41.472I-0.990J1.241
G1X18.261
G2X17.101Y41.975I0.000J1.587
G1X17.026Y42.051
X16.951Y42.126
X16.876Y42.201
X16.801Y42.276
G2X16.430Y42.802I1.084J1.159
G1X16.355Y42.952
X16.233Y43.223
X16.125Y43.328
X16.049Y43.403
G2X15.743Y43.798I1.084J1.159
G2X15.435Y44.436I1.241J0.990
G1X15.302Y44.680
X15.143Y45.080
G0Z5.080
G0X46.723Y27.795
G1Z-1.000F300.0
G1X46.699Y27.772F1000.0
G2X45.540Y27.269I-1.159J1.084
G1X45.089
G2X43.929Y27.772I0.000J1.588
G1X43.854Y27.848
G2X43.483Y28.373I1.084J1.159
G1X43.408Y28.524
G2X43.201Y29.308I1.380J0.784
G1Y29.727
X43.174Y29.822
G2X43.050Y30.435I1.464J0.613
G1Y30.553
X43.023Y30.648
G2X42.902Y31.194I1.464J0.613
G1X42.638Y31.257
G2X41.975Y31.459I0.121J1.583
G2X41.449Y31.830I0.634J1.455
G1X41.374Y31.906
G2X41.003Y32.431I1.084J1.159
G1X40.932Y32.573
X40.923Y32.582
X40.848Y32.657
X40.773Y32.732
G2X40.318Y33.504I1.084J1.159
G1X40.212Y33.884
G2X40.120Y34.418I1.495J0.533
G1Y34.944
X40.124Y35.057
X40.120Y35.136
X40.049Y35.499
X40.017Y35.608
X39.911Y35.988
G2X39.819Y36.522I1.495J0.533
G1Y36.866
X39.817Y36.873
X39.650Y37.166
X39.575Y37.316
X39.500Y37.466
X39.425Y37.616
G2X39.235Y38.168I1.380J0.784
G1X39.160Y38.468
G2X39.068Y39.002I1.495J0.533
G1Y39.528
G2X39.160Y40.061I1.588J0.000
G1X39.266Y40.442
X39.341Y40.667
X39.500Y41.063
G2X39.871Y41.589I1.455J-0.634
G1X39.946Y41.664
X40.022Y41.739
X40.023Y41.741
X40.062Y41.865
G2X40.252Y42.416I1.570J-0.233
G1X40.327Y42.566
G2X40.698Y43.092I1.455J-0.634
G1X40.773Y43.167
X40.848Y43.242
X40.856Y43.251
X41.067Y43.599
X41.078Y43.618
X41.273Y43.950
X41.339Y44.194
G2X41.529Y44.746I1.570J-0.233
G1X41.604Y44.896
X41.679Y45.046
G2X42.051Y45.572I1.455J-0.634
G1X42.126Y45.647
G2X42.651Y46.018I1.159J-1.084
G2X43.436Y46.225I0.784J-1.380
G1X43.661
G2X44.194Y46.133I0.000J-1.588
G2X45.121Y45.647I-0.233J-1.570
G2X45.576Y44.875I-1.084J-1.159
G2X45.699Y44.262I-1.464J-0.613
G1Y43.210
X45.683Y42.985
X45.699Y42.759
Y42.676
G2X46.323Y42.265I-0.535J-1.494
G1X46.399Y42.190
G2X46.854Y41.419I-1.084J-1.159
G2X46.977Y40.805I-1.464J-0.613
G1Y40.354
G2X46.770Y39.570I-1.588J0.000
G1X46.750Y39.526
X47.075Y39.259
X47.150Y39.184
G2X47.521Y38.659I-1.084J-1.159
G2X47.728Y37.875I-1.380J-0.784
G1Y37.571
X48.052Y37.306
X48.127Y37.230
G2X48.630Y36.071I-1.084J-1.159
G1Y35.395
G2X48.423Y34.611I-1.588J0.000
G2X48.052Y34.085I-1.455J0.634
G1X47.977Y34.010
X47.901Y33.935
X47.826Y33.859
X47.751Y33.784
X47.743Y33.776
X47.689Y33.665
X47.869Y33.676
X47.944
G2X48.558Y33.552I0.000J-1.588
G2X49.329Y33.097I-0.388J-1.539
G2X49.700Y32.572I-1.084J-1.159
G2X49.908Y31.788I-1.380J-0.784
G1Y31.262
G2X49.700Y30.477I-1.588J0.000
G1X49.625Y30.327
G2X49.202Y29.755I-1.455J0.634
G1X49.108Y29.446
G2X48.653Y28.674I-1.539J0.388
G1X48.578Y28.599
X48.503Y28.524
G2X48.139Y28.234I-1.159J1.084
G2X47.043Y27.795I-1.096J1.148
G1X46.723
G0Z5.080
G0X63.500Y88.842
G1Z-1.000F300.0
G1X63.496Y88.896F1000.0
X63.442Y88.900
X0.058
X0.004Y88.896
X0.000Y88.842
Y0.058
X0.004Y0.004
X0.058Y0.000
X63.442
X63.496Y0.004
X63.500Y0.058
Y88.842
G0Z5.080
G0X63.460Y0.001
G1Z-2.000F300.0
G1X0.040F1000.0
X0.004Y0.004
X0.000Y0.058
Y2.224
X63.500
Y4.446
X0.000
Y6.669
X63.500
Y8.891
X0.000
Y11.114
X63.500
Y13.336
X0.000
Y15.559
X63.500
Y17.781
X0.000
Y20.004
X63.500
Y22.226
X0.000
Y24.449
X46.295
X46.266Y24.469
X46.109Y24.616
X46.033Y24.691
X45.958Y24.767
X45.811Y24.924
X45.686Y25.101
X45.587Y25.292
X45.512Y25.443
X45.509Y25.447
X45.301Y25.405
X45.089Y25.391
X44.713
X44.500Y25.405
X44.288Y25.449
X44.081Y25.522
X43.886Y25.623
X43.709Y25.748
X43.554Y25.894
X43.407Y26.051
X43.282Y26.228
X43.182Y26.419
X43.107Y26.570
X43.060Y26.671
X0.000
Y28.894
X39.506
X39.417Y28.990
X39.288Y29.178
X39.186Y29.382
X39.116Y29.596
X39.048Y29.794
X39.006Y30.000
X38.992Y30.209
Y30.435
X39.005Y30.639
X39.045Y30.840
X39.110Y31.036
X39.150Y31.116
X37.657
X37.693Y31.136
X37.880Y31.280
X38.042Y31.448
X38.176Y31.634
X38.278Y31.830
X38.367Y32.014
X38.432Y32.209
X38.472Y32.411
X38.485Y32.614
Y33.291
X38.482Y33.339
X39.845
X39.894Y33.548
Y34.944
X39.896Y35.019
X39.894Y35.094
Y35.137
X39.836Y35.387
X39.793Y35.561
X38.250
X38.249Y35.575
X38.218Y35.754
X38.167Y35.928
X38.126Y36.122
X38.061Y36.309
X37.998Y36.506
X37.909Y36.693
X37.867Y36.830
X37.804Y37.094
X37.774Y37.303
X37.716Y37.506
X37.647Y37.784
X39.086
X39.085Y37.792
X39.010Y38.093
X38.934Y38.393
X38.883Y38.567
X38.852Y38.746
X38.842Y38.927
Y39.828
X38.854Y40.006
X37.394
X37.410Y40.084
X37.533Y40.408
X37.620Y40.591
X37.683Y40.784
X37.770Y40.967
X37.834Y41.160
X37.838Y41.168
X37.971Y41.362
X37.982Y41.374
X38.057Y41.449
X38.132Y41.525
X38.207Y41.600
X38.244Y41.635
X38.421Y41.708
X38.589Y41.804
X38.744Y41.919
X38.884Y42.051
X38.959Y42.126
X39.034Y42.201
X39.062Y42.229
X39.914
X39.942Y42.320
X40.008Y42.524
X40.101Y42.717
X40.176Y42.867
X40.252Y43.017
X40.351Y43.209
X40.476Y43.385
X40.623Y43.543
X40.698Y43.618
X40.709Y43.630
X40.842Y43.824
X40.853Y43.844
X40.928Y43.994
X40.948Y44.039
X40.972Y44.244
X41.022Y44.445
X41.022Y44.451
X39.763
Y44.713
X39.749Y44.923
X39.707Y45.128
X39.710Y45.132
X39.786Y45.207
X39.861Y45.282
X39.936Y45.357
X40.011Y45.432
X40.086Y45.507
X40.161Y45.583
X40.236Y45.658
X40.312Y45.733
X40.387Y45.808
X40.469Y45.891
X40.650Y45.985
X40.819Y46.102
X40.961Y46.190
X41.093Y46.293
X41.213Y46.409
X41.329Y46.530
X41.432Y46.662
X41.439Y46.674
X41.547
G0Z5.080
G0X35.609Y31.116
G1Z-2.000F300.0
G1X0.000F1000.0
Y33.339
X31.805
X31.751Y33.504
X31.683Y33.702
X31.642Y33.908
X31.628Y34.117
Y34.718
X31.638Y34.899
X31.669Y35.078
X31.720Y35.252
X31.761Y35.445
X31.802Y35.561
X30.975
X30.989Y35.587
X31.064Y35.738
X31.153Y35.921
X31.218Y36.116
X31.258Y36.318
X31.271Y36.522
Y37.784
X32.518
X32.530Y37.831
Y37.950
X32.549Y38.194
X32.605Y38.432
Y39.195
X32.559Y39.374
X32.534Y39.557
X32.503Y39.666
X32.430Y39.882
X32.371Y40.006
X31.958
G0Z5.080
G0X23.996Y35.561
G1Z-2.000F300.0
G1X0.000F1000.0
Y37.784
X23.766
X23.796Y37.925
X23.861Y38.112
X23.936Y38.338
X24.011Y38.563
X24.077Y38.767
X24.170Y38.959
X24.245Y39.110
X24.341Y39.295
X24.460Y39.466
X24.610Y39.691
X24.631Y39.729
X24.586Y39.717
X24.387Y39.649
X24.181Y39.607
X23.972Y39.594
X23.672
X23.468Y39.607
X23.266Y39.646
X23.071Y39.712
X22.887Y39.801
X22.696Y39.900
X22.546Y40.006
X18.660
G0Z5.080
G0X48.704Y24.449
G1Z-2.000F300.0
G1X63.500F1000.0
Y26.671
X50.195
X50.214Y26.698
X50.315Y26.902
X50.386Y27.116
X50.454Y27.314
X50.495Y27.521
X50.509Y27.730
Y28.256
X50.495Y28.466
X50.453Y28.674
X50.383Y28.874
X50.373Y28.894
X63.500
Y31.116
X50.754
X50.802Y31.185
X50.976Y31.309
X51.133Y31.455
X51.208Y31.530
X51.324Y31.650
X51.427Y31.783
X51.515Y31.925
X51.642Y32.110
X51.743Y32.313
X51.813Y32.527
X51.881Y32.725
X51.923Y32.931
X51.937Y33.140
Y33.339
X63.500
Y35.561
X50.999
X50.831Y35.649
X50.624Y35.722
X50.411Y35.766
X50.199Y35.780
X49.823
X49.722Y35.777
X49.776Y35.888
X49.786Y35.908
X49.905Y36.079
X50.001Y36.264
X50.090Y36.447
X50.156Y36.642
X50.195Y36.844
X50.208Y37.048
Y37.724
X50.204Y37.784
X63.500
Y40.006
X47.665
X47.671Y40.021
X47.764Y40.214
X47.831Y40.417
X47.887Y40.577
X47.927Y40.742
X47.949Y40.910
X47.993Y41.072
X48.020Y41.239
X48.029Y41.407
Y41.450
X48.085Y41.688
X48.104Y41.933
Y42.008
X48.094Y42.188
X48.087Y42.229
X63.500
Y44.451
X46.980
X47.030Y44.490
X47.150Y44.606
X47.225Y44.681
X47.300Y44.756
X47.447Y44.913
X47.572Y45.090
X47.671Y45.282
X47.761Y45.465
X47.826Y45.660
X47.866Y45.862
X47.879Y46.066
Y46.517
X47.869Y46.674
X63.500
Y48.896
X45.323
X45.221Y48.998
X45.029Y49.140
X44.821Y49.250
X44.637Y49.339
X44.442Y49.404
X44.240Y49.444
X44.037Y49.457
X43.661
X43.457Y49.444
X43.255Y49.404
X43.060Y49.339
X42.877Y49.250
X42.725Y49.173
X42.581Y49.081
X42.448Y48.974
X42.463Y49.101
X42.520Y49.330
X42.543Y49.565
X42.597Y49.788
X42.618Y50.016
X42.664Y50.195
X42.689Y50.378
X42.751Y50.642
X42.827Y50.943
X42.875Y51.106
X42.877Y51.119
X63.500
Y53.341
X43.144
Y53.731
X43.131Y53.934
X43.092Y54.136
X43.026Y54.331
X42.937Y54.515
X42.838Y54.706
X42.713Y54.883
X42.566Y55.041
X42.491Y55.116
X42.416Y55.191
X42.260Y55.336
X42.083Y55.462
X41.888Y55.563
X41.885Y55.564
X63.500
Y57.786
G0Z5.080
G0X38.779Y55.564
G1Z-2.000F300.0
G1X40.330F1000.0
G0Z5.080
G0X63.500Y57.786
G1Z-2.000F300.0
G1X39.302F1000.0
X39.297Y57.851
X39.254Y58.064
X39.181Y58.270
X39.080Y58.465
X38.954Y58.642
X38.809Y58.798
X38.679Y58.922
X38.536Y59.031
X38.381Y59.122
X38.353Y59.174
X38.254Y59.365
X38.129Y59.542
X37.982Y59.700
X37.907Y59.775
X37.751Y59.920
X37.626Y60.009
X63.500
Y62.231
G0Z5.080
G0X32.693Y53.341
G1Z-2.000F300.0
G1X32.166F1000.0
G0Z5.080
G0X17.694Y51.119
G1Z-2.000F300.0
G1X23.300F1000.0
X23.337Y51.131
X23.490Y51.258
X23.658Y51.365
X23.832Y51.485
X24.023Y51.583
X24.227Y51.654
X24.437Y51.697
X24.649Y51.711
X25.175
X25.378Y51.698
X25.580Y51.659
X25.775Y51.593
X25.959Y51.504
X26.150Y51.405
X26.327Y51.280
X26.484Y51.133
X26.498Y51.119
X28.246
G0Z5.080
G0X17.785Y40.006
G1Z-2.000F300.0
G1X0.000F1000.0
Y42.229
X15.577
X15.527Y42.283
X15.402Y42.460
X15.302Y42.651
X15.210Y42.844
X15.143Y43.048
X15.086Y43.207
X15.047Y43.372
X15.025Y43.540
X14.972Y43.748
X14.797Y44.034
X14.654Y44.027
X14.203
X13.990Y44.042
X13.778Y44.085
X13.571Y44.159
X13.376Y44.259
X13.199Y44.385
X13.128Y44.451
X0.000
Y46.674
X11.354
X11.318Y46.778
X11.277Y46.984
X11.263Y47.193
Y47.715
X11.091Y47.811
X10.932Y47.927
X10.789Y48.062
X10.631Y48.233
X10.500Y48.426
X10.398Y48.636
X10.241Y48.728
X10.095Y48.838
X10.034Y48.896
X0.000
Y51.119
X9.532
X9.594Y51.290
X9.694Y51.481
X9.818Y51.655
X9.962Y51.809
X10.118Y51.955
X10.295Y52.080
X10.490Y52.181
X10.697Y52.254
X10.909Y52.298
X11.122Y52.312
X11.422
X11.635Y52.298
X11.848Y52.254
X12.054Y52.181
X12.249Y52.080
X12.426Y51.955
X12.582Y51.809
X12.657Y51.734
X12.815Y51.563
X12.947Y51.370
X13.048Y51.161
X13.120Y51.119
X13.741
G0Z5.080
G0X28.929Y53.341
G1Z-2.000F300.0
G1X0.000F1000.0
Y55.564
X33.935
X33.958Y55.642
X33.970Y55.812
X34.001Y55.980
X34.050Y56.143
X34.089Y56.330
X34.151Y56.511
X34.233Y56.683
X34.258Y56.768
Y56.887
X34.267Y57.055
X34.294Y57.222
X34.338Y57.384
X34.368Y57.593
X34.423Y57.786
X0.000
Y60.009
X35.470
G0Z5.080
G0X63.500Y62.231
G1Z-2.000F300.0
G1X0.000F1000.0
Y64.454
X63.500
Y66.676
X0.000
Y68.899
X63.500
Y71.121
X0.000
Y73.344
X63.500
Y75.566
X0.000
Y77.789
X63.500
Y80.011
X0.000
Y82.234
X63.500
Y84.456
X0.000
Y86.678
X63.500
Y88.842
X63.496Y88.896
X63.460Y88.899
X0.040
G0Z5.080
G0X10.398Y48.636
G1Z-2.000F300.0
G2X9.962Y48.964I0.724J1.413F1000.0
G2X9.591Y49.490I1.084J1.159
G2X9.384Y50.274I1.380J0.784
G1Y50.349
G2X9.476Y50.883I1.588J0.000
G2X9.962Y51.809I1.570J-0.233
G2X11.122Y52.312I1.159J-1.084
G1X11.422
G2X12.582Y51.809I0.000J-1.587
G1X12.657Y51.734
G2X13.048Y51.161I-1.084J-1.159
G2X13.484Y50.832I-0.724J-1.413
G1X13.506Y50.811
X13.656Y50.994
X13.789Y51.189
X13.800Y51.208
G2X14.171Y51.734I1.455J-0.634
G1X14.246Y51.809
X14.321Y51.884
G2X14.847Y52.255I1.159J-1.084
G2X15.631Y52.463I0.784J-1.380
G1X15.706
G2X16.319Y52.339I0.000J-1.588
G1X16.715Y52.180
G2X17.473Y51.490I-0.634J-1.455
G1X17.687Y51.133
X17.844Y50.746
X17.997Y50.361
X18.103Y49.981
X18.165Y49.757
X18.336
G2X18.949Y49.634I0.000J-1.588
G1X19.071Y49.598
X19.238Y49.607
X19.614
X19.625Y49.607
G2X20.440Y49.832I0.816J-1.362
G1X20.743
G2X21.417Y49.983I0.674J-1.437
G1X21.643
X22.036Y49.933
G2X22.437Y50.532I1.485J-0.561
G1X22.512Y50.607
X22.587Y50.682
G2X23.337Y51.131I1.159J-1.084
G1X23.658Y51.365
G2X24.649Y51.711I0.990J-1.241
G1X25.175
G2X25.959Y51.504I0.000J-1.588
G2X26.484Y51.133I-0.634J-1.455
G1X26.559Y51.058
X26.635Y50.983
X26.710Y50.907
X26.959Y50.609
X27.321Y50.828
X27.472Y50.903
G2X28.246Y51.110I0.784J-1.380
G1Y51.852
G2X28.453Y52.636I1.588J0.000
G1X28.529Y52.786
G2X28.900Y53.312I1.455J-0.634
G1X28.975Y53.387
X29.050Y53.462
X29.125Y53.538
G2X29.651Y53.909I1.159J-1.084
G2X30.435Y54.116I0.784J-1.380
G1X30.660
G2X31.444Y53.909I0.000J-1.588
G2X31.970Y53.538I-0.634J-1.455
G1X32.045Y53.462
X32.120Y53.387
X32.196Y53.312
G2X32.555Y52.812I-1.084J-1.159
G1X32.622Y53.062
G2X32.951Y53.819I1.570J-0.233
G2X33.361Y54.302I1.391J-0.765
G1X33.404Y54.419
X33.563Y54.815
X33.639Y54.966
X33.853Y55.322
X33.858Y55.330
X33.930Y55.546
X33.958Y55.642
G2X34.050Y56.143I1.587J-0.033
G2X34.233Y56.683I1.570J-0.233
G1X34.258Y56.768
Y56.887
G2X34.338Y57.384I1.588J0.000
G1X34.426Y57.796
X34.484Y58.046
Y58.240
G2X34.607Y58.853I1.588J0.000
G1X34.766Y59.249
G2X35.587Y60.071I1.455J-0.634
G2X36.372Y60.278I0.784J-1.380
G1X36.747
G2X37.907Y59.775I0.000J-1.588
G1X37.982Y59.700
G2X38.353Y59.174I-1.084J-1.159
G1X38.381Y59.122
G2X38.809Y58.798I-0.732J-1.409
G2X39.312Y57.638I-1.084J-1.159
G1Y57.488
G2X38.861Y56.380I-1.588J0.000
G1Y56.060
G2X38.769Y55.527I-1.588J0.000
G1X38.662Y55.146
X38.587Y54.921
X38.512Y54.696
X38.462Y54.534
G2X39.215Y54.970I1.141J-1.104
G1X39.606Y55.077
X39.646Y55.116
G2X40.172Y55.487I1.159J-1.084
G2X40.956Y55.694I0.784J-1.380
G1X41.256
G2X42.416Y55.191I0.000J-1.588
G1X42.491Y55.116
X42.566Y55.041
G2X42.937Y54.515I-1.084J-1.159
G2X43.144Y53.731I-1.380J-0.784
G1Y52.754
G2X43.069Y52.270I-1.588J0.000
G2X42.989Y51.806I-1.587J0.033
G1X42.919Y51.444
G2X42.827Y50.943I-1.587J0.033
G1X42.751Y50.642
X42.689Y50.378
X42.618Y50.016
G2X42.543Y49.565I-1.587J0.033
G2X42.463Y49.101I-1.587J0.033
G1X42.448Y48.974
G2X42.877Y49.250I1.062J-1.180
G2X43.661Y49.457I0.784J-1.380
G1X44.037
G2X44.821Y49.250I0.000J-1.588
G2X45.642Y48.428I-0.634J-1.455
G1X45.656Y48.404
X45.690Y48.405
X45.991
G2X46.775Y48.198I0.000J-1.588
G2X47.300Y47.826I-0.634J-1.455
G2X47.671Y47.301I-1.084J-1.159
G2X47.879Y46.517I-1.380J-0.784
G1Y46.066
G2X47.671Y45.282I-1.588J0.000
G2X47.300Y44.756I-1.455J0.634
G1X47.225Y44.681
X47.150Y44.606
G2X46.755Y44.299I-1.159J1.084
G1X46.602Y44.191
X46.575Y44.136
X46.925Y43.989
G2X47.451Y43.618I-0.634J-1.455
G2X47.822Y43.092I-1.084J-1.159
G2X48.012Y42.541I-1.380J-0.784
G2X48.104Y42.008I-1.495J-0.533
G1Y41.933
G2X48.029Y41.450I-1.588J0.000
G1Y41.407
G2X47.949Y40.910I-1.588J0.000
G2X47.831Y40.417I-1.583J0.121
G1X47.671Y40.021
X47.646Y39.967
X47.676Y39.936
X47.850Y39.744
X48.095Y39.763
X48.245
G2X49.029Y39.555I0.000J-1.587
G2X49.555Y39.184I-0.634J-1.455
G1X49.630Y39.109
G2X50.085Y38.338I-1.084J-1.159
G2X50.208Y37.724I-1.464J-0.613
G1Y37.048
G2X50.001Y36.264I-1.587J0.000
G1X49.786Y35.908
X49.776Y35.888
X49.722Y35.777
X49.823Y35.780
X50.199
G2X51.358Y35.277I0.000J-1.588
G2X51.729Y34.751I-1.084J-1.159
G2X51.937Y33.967I-1.380J-0.784
G1Y33.140
G2X51.813Y32.527I-1.587J0.000
G2X51.515Y31.925I-1.539J0.388
G2X51.208Y31.530I-1.391J0.765
G1X51.133Y31.455
X50.802Y31.185
X50.688Y31.023
X50.652Y30.960
X50.659Y30.811
Y30.134
G2X50.452Y29.350I-1.588J0.000
G1X50.289Y29.062
G2X50.509Y28.256I-1.367J-0.806
G1Y27.730
G2X50.386Y27.116I-1.588J0.000
G2X49.930Y26.345I-1.539J0.388
G2X49.532Y26.036I-1.159J1.084
G1Y26.001
G2X49.325Y25.217I-1.588J0.000
G2X48.954Y24.691I-1.455J0.634
G1X48.878Y24.616
X48.803Y24.541
G2X47.644Y24.038I-1.159J1.084
G1X47.418
G2X46.634Y24.245I0.000J1.588
G2X46.109Y24.616I0.634J1.455
G1X46.033Y24.691
X45.958Y24.767
G2X45.587Y25.292I1.084J1.159
G1X45.512Y25.443
X45.509Y25.447
X45.089Y25.391
X44.713
G2X43.554Y25.894I0.000J1.588
G2X43.182Y26.419I1.084J1.159
G1X43.107Y26.570
X43.000Y26.798
G2X42.798Y27.267I1.337J0.856
G2X42.675Y27.880I1.464J0.613
G1Y28.444
G2X42.253Y28.617I0.385J1.540
G1X41.965Y28.453
G2X41.181Y28.246I-0.784J1.380
G1X40.805
G2X39.646Y28.749I0.000J1.588
G1X39.571Y28.825
G2X39.116Y29.596I1.084J1.159
G2X38.992Y30.209I1.464J0.613
G1Y30.435
G2X39.200Y31.219I1.588J0.000
G1X39.275Y31.369
X39.393Y31.592
X39.518Y31.852
Y31.863
G2X39.642Y32.476I1.588J0.000
G1X39.717Y32.701
X39.792Y32.927
X39.819Y33.022
Y33.065
G2X39.894Y33.548I1.588J0.000
G1Y34.944
X39.896Y35.019
X39.894Y35.094
Y35.137
X39.836Y35.387
X39.761Y35.688
X39.686Y35.988
G2X39.594Y36.522I1.495J0.533
G1Y36.674
X39.575Y36.715
X39.500Y36.865
X39.489Y36.884
X39.275Y37.241
G2X39.085Y37.792I1.380J0.784
G1X39.010Y38.093
X38.934Y38.393
G2X38.842Y38.927I1.495J0.533
G1Y39.828
G2X38.965Y40.442I1.588J0.000
G1X39.040Y40.667
X39.200Y41.063
X39.275Y41.214
X39.350Y41.364
G2X39.721Y41.890I1.455J-0.634
G1X39.796Y41.965
X39.850Y42.020
X39.942Y42.320
X40.101Y42.717
X40.176Y42.867
X40.252Y43.017
G2X40.623Y43.543I1.455J-0.634
G1X40.698Y43.618
X40.709Y43.630
X40.842Y43.824
X40.853Y43.844
X40.928Y43.994
X40.948Y44.039
X41.022Y44.445
G2X41.097Y44.895I1.587J-0.033
G1Y44.938
G2X41.220Y45.552I1.588J0.000
G1X41.295Y45.777
G2X41.547Y46.319I1.539J-0.388
G1Y46.839
X41.520Y46.804
G2X41.213Y46.409I-1.391J0.765
G2X40.819Y46.102I-1.159J1.084
G1X40.469Y45.891
X40.387Y45.808
X40.312Y45.733
X40.236Y45.658
X40.161Y45.583
X40.086Y45.507
X40.011Y45.432
X39.936Y45.357
X39.861Y45.282
X39.786Y45.207
X39.710Y45.132
X39.707Y45.128
X39.763Y44.713
Y43.736
G2X39.555Y42.952I-1.587J0.000
G1X39.480Y42.802
G2X39.109Y42.276I-1.455J0.634
G1X39.034Y42.201
X38.959Y42.126
X38.884Y42.051
G2X38.244Y41.635I-1.159J1.084
G1X38.207Y41.600
X38.132Y41.525
X38.057Y41.449
X37.982Y41.374
X37.971Y41.362
X37.838Y41.168
X37.834Y41.160
X37.683Y40.784
X37.533Y40.408
X37.410Y40.084
X37.388Y39.979
X37.433Y39.603
Y38.958
G2X37.508Y38.476I-1.512J-0.483
G1Y38.357
X37.566Y38.107
X37.641Y37.807
X37.716Y37.506
X37.804Y37.094
X37.867Y36.830
X37.909Y36.693
X38.061Y36.309
X38.167Y35.928
G2X38.260Y35.395I-1.495J-0.533
G1Y34.418
X38.247Y34.217
X38.362Y33.904
G2X38.485Y33.291I-1.464J-0.613
G1Y32.614
G2X38.278Y31.830I-1.588J0.000
G2X36.822Y30.876I-1.455J0.634
G1X36.447
G2X35.287Y31.380I0.000J1.588
G1X35.212Y31.455
G2X34.841Y31.980I1.084J1.159
G1X34.704Y32.298
X34.676Y32.286
G2X33.892Y32.079I-0.784J1.380
G1X33.666
G2X33.053Y32.202I0.000J1.588
G2X32.281Y32.657I0.388J1.539
G1X32.206Y32.732
G2X31.751Y33.504I1.084J1.159
G2X31.628Y34.117I1.464J0.613
G1Y34.718
G2X31.720Y35.252I1.588J0.000
G1X31.826Y35.632
X31.901Y35.858
X32.054Y36.242
X32.127Y36.459
X32.171Y36.604
G2X32.355Y37.144I1.570J-0.233
G1X32.427Y37.361
X32.459Y37.470
X32.530Y37.831
Y37.950
G2X32.605Y38.432I1.588J0.000
G1Y39.195
X32.534Y39.557
X32.503Y39.666
X32.430Y39.882
X32.279Y40.258
X32.211Y40.397
X32.147Y40.521
G2X31.966Y40.021I-1.562J0.284
G2X31.594Y39.496I-1.455J0.634
G1X31.519Y39.420
X31.444Y39.345
X31.346Y39.249
Y39.227
G2X31.254Y38.694I-1.588J0.000
G1X31.196Y38.444
Y38.282
G2X31.271Y37.799I-1.512J-0.483
G1Y36.522
G2X31.064Y35.738I-1.588J0.000
G1X30.989Y35.587
G2X30.167Y34.766I-1.455J0.634
G2X29.383Y34.559I-0.784J1.380
G1X29.157
X28.801Y34.599
G2X27.952Y34.199I-1.072J1.171
G1X27.912Y34.160
X27.837Y34.085
G2X26.678Y33.582I-1.159J1.084
G1X26.151
G2X24.992Y34.085I0.000J1.588
G1X24.917Y34.160
X24.842Y34.235
G2X24.471Y34.761I1.084J1.159
G1X24.395Y34.911
X24.276Y35.176
G2X23.945Y35.663I1.124J1.121
G1X23.869Y35.813
G2X23.662Y36.597I1.380J0.784
G1Y37.198
G2X23.755Y37.732I1.588J0.000
G1X23.861Y38.112
X23.936Y38.338
X24.011Y38.563
X24.170Y38.959
X24.245Y39.110
X24.460Y39.466
X24.610Y39.691
X24.631Y39.729
X24.586Y39.717
G2X23.972Y39.594I-0.613J1.464
G1X23.672
G2X22.887Y39.801I0.000J1.588
G2X22.362Y40.172I0.634J1.455
G1X22.287Y40.247
X22.212Y40.322
X22.160Y40.372
X21.868Y40.345
X21.417
G2X20.427Y40.692I0.000J1.588
G1X20.222Y40.826
G2X19.797Y40.552I-1.060J1.182
G1X19.655Y40.481
G2X18.949Y40.093I-1.093J1.151
G2X18.336Y39.969I-0.613J1.464
G1X18.111
G2X17.327Y40.176I0.000J1.588
G2X16.801Y40.548I0.634J1.455
G2X16.430Y41.073I1.084J1.159
G1X16.355Y41.224
G2X16.178Y41.699I1.380J0.784
G1X16.088Y41.808
G2X15.674Y42.126I0.745J1.402
G2X15.302Y42.651I1.084J1.159
G1X15.143Y43.048
G2X15.025Y43.540I1.464J0.613
G1X14.972Y43.748
X14.797Y44.034
X14.654Y44.027
X14.203
G2X13.043Y44.530I0.000J1.588
G1X12.968Y44.606
X12.893Y44.681
X12.665Y44.947
G2X12.217Y45.282I0.711J1.419
G1X12.142Y45.357
X12.067Y45.432
X11.991Y45.507
X11.916Y45.583
G2X11.461Y46.354I1.084J1.159
G1X11.386Y46.580
G2X11.263Y47.193I1.464J0.613
G1Y47.715
G2X10.789Y48.062I0.686J1.432
G2X10.398Y48.636I1.084J1.159
G0Z5.080
G0X63.442Y0.000
G1Z-2.000F300.0
G1X63.496Y0.004F1000.0
X63.500Y0.058
Y88.842
X63.496Y88.896
X63.442Y88.900
X0.058
X0.004Y88.896
X0.000Y88.842
Y0.058
X0.004Y0.004
X0.058Y0.000
X63.442
G0Z5.080
G0X63.460Y0.001
G1Z-3.000F300.0
G1X0.040F1000.0
X0.004Y0.004
X0.000Y0.058
Y2.224
X63.500
Y4.446
X0.000
Y6.669
X63.500
Y8.891
X0.000
Y11.114
X63.500
Y13.336
X0.000
Y15.559
X63.500
Y17.781
X0.000
Y20.004
X63.500
Y22.226
X50.060
X50.075Y22.271
X50.116Y22.462
X50.167Y22.636
X50.198Y22.815
X50.208Y22.995
Y23.600
X50.379Y23.721
X50.532Y23.865
X50.607Y23.940
X50.723Y24.060
X50.826Y24.193
X50.914Y24.335
X50.995Y24.449
X63.500
Y26.671
X52.128
X52.143Y26.733
X52.162Y26.978
Y27.128
X52.162Y27.166
X52.162Y27.204
Y27.429
X52.143Y27.673
X52.087Y27.912
Y28.030
X52.069Y28.267
X52.016Y28.500
X51.929Y28.721
X52.035Y28.825
X52.099Y28.894
X63.500
Y31.116
X52.621
X52.669Y31.315
X52.688Y31.562
Y31.863
X52.677Y32.052
X52.643Y32.238
X52.671Y32.381
X52.722Y32.555
X52.753Y32.734
X52.763Y32.915
Y33.339
X63.500
Y35.561
X52.631
X52.596Y35.703
X52.521Y36.003
X52.480Y36.194
X52.416Y36.379
X52.331Y36.555
X52.255Y36.705
X52.146Y36.913
X52.004Y37.105
X51.834Y37.275
X51.642Y37.417
X51.434Y37.526
X51.284Y37.602
X50.960Y37.741
Y37.784
X63.500
Y40.006
X51.335
Y40.054
X51.322Y40.257
X51.283Y40.459
X51.217Y40.654
X51.128Y40.838
X51.029Y41.029
X50.904Y41.206
X50.757Y41.364
X50.601Y41.509
X50.424Y41.635
X50.230Y41.736
X50.023Y41.809
X49.810Y41.852
X49.598Y41.867
X49.222
X49.043Y41.857
X48.865Y41.826
X48.693Y41.776
X48.653Y41.815
X48.578Y41.890
X48.452Y42.011
X48.472Y42.229
X63.500
Y44.451
X49.048
X49.075Y44.489
X49.174Y44.680
X49.264Y44.864
X49.329Y45.059
X49.368Y45.261
X49.382Y45.464
Y45.915
X49.368Y46.119
X49.329Y46.321
X49.264Y46.516
X49.187Y46.674
X63.500
Y48.896
X47.879
Y49.823
X47.865Y50.032
X47.823Y50.238
X47.755Y50.436
X47.711Y50.582
X47.653Y50.832
Y51.025
X47.648Y51.119
X63.500
Y53.341
X45.946
X45.903Y53.350
X45.690Y53.364
X45.389
X45.186Y53.351
X45.134Y53.341
X44.422
G0Z5.080
G0X44.669Y55.564
G1Z-3.000F300.0
G1X63.500F1000.0
Y57.786
X42.543
Y58.014
X42.530Y58.218
X42.490Y58.420
X42.425Y58.615
X42.336Y58.798
X42.234Y58.995
X42.100Y59.180
X41.938Y59.349
X41.751Y59.492
X41.544Y59.607
X41.325Y59.688
X41.101Y59.737
X40.880Y59.752
X40.655
X40.451Y59.739
X40.250Y59.699
X40.054Y59.634
X39.871Y59.545
X39.684Y59.448
X39.631Y59.550
X39.555Y59.700
X39.535Y59.744
X39.537Y59.818
Y60.009
X63.500
Y62.231
X39.262
X39.253Y62.273
X39.188Y62.460
X39.113Y62.686
X39.047Y62.889
X38.954Y63.082
X38.879Y63.232
X38.804Y63.382
X38.705Y63.574
X38.580Y63.750
X38.433Y63.908
X38.358Y63.983
X38.283Y64.058
X38.127Y64.204
X37.950Y64.329
X37.755Y64.430
X37.689Y64.454
X63.500
Y66.676
G0Z5.080
G0X32.719Y55.564
G1Z-3.000F300.0
G1X33.535F1000.0
X33.607Y55.671
X33.732Y55.816
Y55.835
X33.742Y56.016
X33.773Y56.195
X33.824Y56.368
X33.866Y56.562
X33.930Y56.749
X34.033Y57.035
Y57.188
X34.044Y57.377
X34.078Y57.563
X34.044Y57.750
X34.042Y57.786
X31.599
X31.502Y57.857
X31.294Y57.967
X31.144Y58.042
X30.969Y58.128
X30.784Y58.191
X30.593Y58.232
X30.419Y58.283
X30.240Y58.314
X30.059Y58.324
X29.683
X29.480Y58.311
X29.278Y58.272
X29.083Y58.206
X28.899Y58.117
X28.708Y58.018
X28.531Y57.893
X28.417Y57.786
X27.844
G0Z5.080
G0X18.749Y51.119
G1Z-3.000F300.0
G1X20.100F1000.0
X20.183Y51.208
X20.258Y51.283
X20.333Y51.358
X20.489Y51.504
X20.666Y51.629
X20.860Y51.730
X21.067Y51.803
X21.280Y51.847
X21.492Y51.861
X21.718
X21.924Y51.848
X22.128Y51.807
X22.326Y51.740
X22.511Y51.649
X22.659Y51.757
X22.819Y51.848
X22.988Y51.919
X23.114Y52.099
X23.264Y52.260
X23.339Y52.335
X23.414Y52.410
X23.571Y52.557
X23.748Y52.682
X23.940Y52.782
X24.011Y52.991
X24.077Y53.195
X24.148Y53.341
X18.761
G0Z5.080
G0X46.106Y22.226
G1Z-3.000F300.0
G1X0.000F1000.0
Y24.449
X43.572
X43.554Y24.466
X43.478Y24.541
X43.403Y24.616
X43.371Y24.647
X43.210Y24.639
X42.684
X42.480Y24.652
X42.279Y24.692
X42.083Y24.757
X41.900Y24.846
X41.709Y24.946
X41.532Y25.070
X41.374Y25.217
X41.299Y25.293
X41.152Y25.450
X41.027Y25.627
X40.928Y25.818
X40.853Y25.969
X40.767Y26.145
X40.703Y26.331
X40.662Y26.525
X40.650Y26.671
X0.000
Y28.894
X38.648
X38.598Y29.037
X38.558Y29.230
X38.542Y29.425
X38.485Y29.664
X38.466Y29.909
Y29.989
X38.358Y29.877
X38.200Y29.730
X38.023Y29.605
X37.832Y29.505
X37.649Y29.416
X37.453Y29.351
X37.252Y29.311
X37.048Y29.298
X36.747
X36.544Y29.311
X36.342Y29.351
X36.147Y29.416
X35.963Y29.505
X35.772Y29.605
X35.595Y29.730
X35.438Y29.877
X35.362Y29.952
X35.351Y29.963
X35.158Y30.094
X34.987Y30.252
X34.912Y30.328
X34.764Y30.485
X34.640Y30.662
X34.540Y30.853
X34.465Y31.003
X34.437Y31.055
X34.333Y31.116
X34.104
G0Z5.080
G0X33.231
G1Z-3.000F300.0
G1X0.000F1000.0
Y33.339
X23.794
X23.639Y33.484
X23.564Y33.559
X23.417Y33.716
X23.292Y33.893
X23.193Y34.085
X23.118Y34.235
X23.043Y34.385
X22.954Y34.569
X22.888Y34.764
X22.849Y34.966
X22.836Y35.169
Y35.545
X22.837Y35.561
X22.421
G0Z5.080
G0X20.263
G1Z-3.000F300.0
G1X0.000F1000.0
Y37.784
X19.079
X19.078Y37.799
Y38.551
X19.088Y38.727
X19.117Y38.901
X19.165Y39.070
X19.120Y39.049
X18.937Y38.960
X18.742Y38.895
X18.540Y38.855
X18.336Y38.842
X17.810
X17.597Y38.856
X17.385Y38.900
X17.178Y38.973
X16.983Y39.074
X16.806Y39.200
X16.651Y39.345
X16.575Y39.420
X16.500Y39.496
X16.353Y39.653
X16.228Y39.830
X16.137Y40.006
X0.000
Y42.229
X14.692
X14.658Y42.405
X14.644Y42.609
Y42.831
X14.504Y42.825
X14.053
X13.849Y42.838
X13.647Y42.878
X13.452Y42.943
X13.269Y43.032
X13.077Y43.131
X12.900Y43.256
X12.743Y43.403
X12.668Y43.478
X12.593Y43.554
X12.446Y43.711
X12.321Y43.888
X12.221Y44.079
X12.120Y44.294
X11.974Y44.404
X11.924Y44.451
X0.000
Y46.674
X10.887
Y46.808
X10.596
X10.383Y46.822
X10.171Y46.866
X9.964Y46.939
X9.769Y47.040
X9.592Y47.165
X9.436Y47.311
X9.361Y47.386
X9.286Y47.461
X9.211Y47.536
X9.064Y47.694
X8.939Y47.871
X8.840Y48.062
X8.751Y48.246
X8.685Y48.441
X8.646Y48.643
X8.633Y48.846
Y48.896
X0.000
Y51.119
X8.031
Y51.476
X8.045Y51.685
X8.087Y51.892
X8.155Y52.090
X8.221Y52.293
X8.314Y52.486
X8.389Y52.636
X8.488Y52.827
X8.613Y53.004
X8.760Y53.162
X8.835Y53.237
X8.947Y53.341
X0.000
Y55.564
G0Z5.080
G0X13.367Y53.341
G1Z-3.000F300.0
G1X12.785F1000.0
G0Z5.080
G0X0.000Y55.564
G1Z-3.000F300.0
G1X14.248F1000.0
X14.326Y55.637
X14.504Y55.762
X14.698Y55.863
X14.905Y55.937
X15.118Y55.980
X15.330Y55.995
X15.706
X15.919Y55.980
X16.131Y55.937
X16.338Y55.863
X16.532Y55.762
X16.710Y55.637
X16.788Y55.564
X24.254
X24.316Y55.502
X24.391Y55.427
X24.547Y55.281
X24.724Y55.156
X24.918Y55.055
X25.125Y54.982
X25.338Y54.938
X25.550Y54.924
X26.076
X26.289Y54.938
X26.502Y54.982
X26.708Y55.055
X26.903Y55.156
X27.080Y55.281
X27.236Y55.427
X27.311Y55.502
X27.369Y55.564
X27.720
G0Z5.080
G0X23.654Y57.786
G1Z-3.000F300.0
G1X0.000F1000.0
Y60.009
X34.432
X34.465Y60.076
X34.540Y60.226
X34.696Y60.504
X34.651Y60.712
X34.578Y60.998
X34.326Y61.095
X34.098Y61.136
X33.871Y61.213
X33.653Y61.326
X33.453Y61.474
X33.278Y61.651
X33.135Y61.851
X33.026Y62.065
X32.971Y62.231
X0.000
Y64.454
X33.430
G0Z5.080
G0X63.500Y66.676
G1Z-3.000F300.0
G1X0.000F1000.0
Y68.899
X63.500
Y71.121
X0.000
Y73.344
X63.500
Y75.566
X0.000
Y77.789
X63.500
Y80.011
X0.000
Y82.234
X63.500
Y84.456
X0.000
Y86.678
X63.500
Y88.842
X63.496Y88.896
X63.460Y88.899
X0.040
G0Z5.080
G0X23.380Y37.784
G1Z-3.000F300.0
G1X23.505F1000.0
G0Z5.080
G0X31.528
G1Z-3.000F300.0
G1X32.311F1000.0
G0Z5.080
G0X38.985Y33.339
G1Z-3.000F300.0
G1X39.576F1000.0
X39.577Y33.341
X39.642Y33.528
X39.669Y33.624
X39.690Y33.852
X39.744Y34.074
Y34.611
X39.686Y34.861
X39.611Y35.162
X39.567Y35.307
X39.502Y35.494
X39.487Y35.561
X38.563
X38.543Y35.628
X38.502Y35.821
X38.437Y36.008
X38.362Y36.233
X38.298Y36.431
X38.209Y36.618
X38.101Y36.914
X38.030Y37.244
X38.000Y37.453
X37.942Y37.657
X37.910Y37.784
X38.839
X38.798Y37.939
X38.772Y38.129
X38.740Y38.238
X38.672Y38.436
X38.630Y38.642
X38.617Y38.851
Y40.006
X37.722
G0Z5.080
G0X0.000Y0.058
G1Z-3.000F300.0
G1X0.004Y0.004F1000.0
X0.058Y0.000
X63.442
X63.496Y0.004
X63.500Y0.058
Y88.842
X63.496Y88.896
X63.442Y88.900
X0.058
X0.004Y88.896
X0.000Y88.842
Y0.058
G0Z5.080
G0X19.511Y36.414
G1Z-3.000F300.0
G1X19.436Y36.564F1000.0
X19.277Y36.961
X19.201Y37.186
G2X19.078Y37.799I1.464J0.613
G1Y38.551
G2X19.165Y39.070I1.588J0.000
G1X19.120Y39.049
G2X18.336Y38.842I-0.784J1.380
G1X17.810
G2X16.651Y39.345I0.000J1.588
G1X16.575Y39.420
X16.500Y39.496
G2X16.129Y40.021I1.084J1.159
G1X16.054Y40.172
G2X15.872Y40.676I1.380J0.784
G2X15.448Y40.999I0.736J1.407
G1X15.373Y41.074
X15.298Y41.149
G2X14.927Y41.674I1.084J1.159
G1X14.852Y41.825
G2X14.644Y42.609I1.380J0.784
G1Y42.831
X14.504Y42.825
X14.053
G2X13.269Y43.032I0.000J1.588
G2X12.743Y43.403I0.634J1.455
G1X12.668Y43.478
X12.593Y43.554
G2X12.221Y44.079I1.084J1.159
G1X12.120Y44.294
X11.841Y44.530
G2X11.552Y44.894I1.084J1.159
G1X11.541Y44.906
X11.465Y44.981
X11.390Y45.056
G2X10.887Y46.216I1.084J1.159
G1Y46.808
X10.596
G2X9.436Y47.311I0.000J1.587
G1X9.361Y47.386
X9.286Y47.461
X9.211Y47.536
G2X8.840Y48.062I1.084J1.159
G2X8.633Y48.846I1.380J0.784
G1Y49.173
G2X8.389Y49.565I1.212J1.026
G1X8.230Y49.961
G2X8.111Y50.453I1.464J0.613
G2X8.031Y50.950I1.508J0.497
G1Y51.476
G2X8.155Y52.090I1.588J0.000
G1X8.314Y52.486
X8.389Y52.636
G2X8.760Y53.162I1.455J-0.634
G1X8.835Y53.237
G2X9.361Y53.608I1.159J-1.084
G1X9.503Y53.680
X9.512Y53.688
X9.587Y53.763
G2X10.112Y54.134I1.159J-1.084
G2X10.896Y54.341I0.784J-1.380
G1X11.122
G2X11.906Y54.134I0.000J-1.587
G2X12.432Y53.763I-0.634J-1.455
G1X12.507Y53.688
G2X12.878Y53.162I-1.084J-1.159
G1X12.953Y53.012
X13.028Y52.862
X13.030Y52.858
X13.120Y52.803
X13.367Y52.836
Y53.656
G2X13.459Y54.189I1.588J0.000
G2X13.649Y54.740I1.570J-0.233
G1X13.864Y55.097
G2X14.171Y55.491I1.391J-0.765
G2X15.330Y55.995I1.159J-1.084
G1X15.706
G2X16.865Y55.491I0.000J-1.587
G2X17.237Y54.966I-1.084J-1.159
G1X17.396Y54.570
X17.477Y54.319
G2X18.368Y53.838I-0.268J-1.565
G1X18.444Y53.763
G2X18.815Y53.237I-1.084J-1.159
G2X19.022Y52.453I-1.380J-0.784
G1Y52.002
G2X18.675Y51.012I-1.588J0.000
G1X18.468Y50.719
X18.496Y50.424
Y50.403
X18.799Y50.310
X19.089Y50.207
X19.163Y50.208
X19.285
X19.581Y50.377
X19.731Y50.452
X19.732Y50.452
G2X20.183Y51.208I1.535J-0.404
G1X20.258Y51.283
X20.333Y51.358
G2X21.492Y51.861I1.159J-1.084
G1X21.718
G2X22.511Y51.649I0.000J-1.587
G2X22.988Y51.919I1.010J-1.225
G1X23.264Y52.260
X23.339Y52.335
X23.414Y52.410
G2X23.940Y52.782I1.159J-1.084
G1X24.011Y52.991
X24.170Y53.388
X24.245Y53.538
G2X24.616Y54.064I1.455J-0.634
G1X24.691Y54.139
X24.767Y54.214
X24.842Y54.289
G2X26.001Y54.792I1.159J-1.084
G1X26.227
G2X27.386Y54.289I0.000J-1.587
G1X27.461Y54.214
X27.468Y54.208
G2X28.060Y54.341I0.637J-1.454
G1X27.996Y54.536
X27.927Y54.675
G2X27.720Y55.459I1.380J0.784
G1Y56.099
X27.682Y56.028
G2X27.311Y55.502I-1.455J0.634
G1X27.236Y55.427
G2X26.076Y54.924I-1.159J1.084
G1X25.550
G2X24.391Y55.427I0.000J1.587
G1X24.316Y55.502
X24.241Y55.577
G2X23.869Y56.103I1.084J1.159
G1X23.710Y56.499
G2X23.587Y57.112I1.464J0.613
G1Y57.338
G2X23.710Y57.951I1.588J0.000
G1X23.869Y58.347
G2X24.241Y58.873I1.455J-0.634
G2X24.766Y59.244I1.159J-1.084
G1X24.916Y59.319
G2X25.701Y59.527I0.784J-1.380
G1X26.001
G2X27.161Y59.023I0.000J-1.587
G1X27.236Y58.948
X27.311Y58.873
G2X27.797Y57.947I-1.084J-1.159
G2X27.889Y57.413I-1.495J-0.533
G1Y56.999
X27.927Y57.070
X28.002Y57.220
G2X28.374Y57.746I1.455J-0.634
G2X28.899Y58.117I1.159J-1.084
G2X29.683Y58.324I0.784J-1.380
G1X30.059
G2X30.593Y58.232I0.000J-1.587
G2X31.144Y58.042I-0.233J-1.570
G1X31.294Y57.967
G2X32.116Y57.145I-0.634J-1.455
G1X32.191Y56.995
X32.266Y56.844
G2X32.465Y56.227I-1.380J-0.784
G1X32.575Y55.922
X32.648Y55.706
X32.717Y55.567
X32.792Y55.417
G2X32.982Y54.865I-1.380J-0.784
G1X32.990Y54.843
X33.299Y55.118
X33.338Y55.191
X33.413Y55.342
G2X33.732Y55.816I1.455J-0.634
G1Y55.835
G2X33.824Y56.368I1.588J0.000
G1X33.930Y56.749
X34.033Y57.035
Y57.188
X34.078Y57.563
X34.033Y57.939
Y58.615
G2X34.125Y59.149I1.588J0.000
G1X34.231Y59.529
X34.390Y59.926
X34.465Y60.076
X34.540Y60.226
X34.696Y60.504
X34.651Y60.712
X34.578Y60.998
X34.326Y61.095
G2X32.954Y62.285I0.167J1.579
G2X32.830Y62.899I1.464J0.613
G1Y63.199
G2X33.333Y64.359I1.588J0.000
G1X33.409Y64.434
G2X33.934Y64.805I1.159J-1.084
G2X34.718Y65.012I0.784J-1.380
G1X35.019
G2X35.803Y64.805I0.000J-1.587
G2X36.241Y64.521I-0.634J-1.455
G1X36.597Y64.561
X37.123
G2X38.283Y64.058I0.000J-1.587
G1X38.358Y63.983
X38.433Y63.908
G2X38.804Y63.382I-1.084J-1.159
G1X38.879Y63.232
X38.954Y63.082
X39.113Y62.686
X39.188Y62.460
X39.295Y62.080
X39.370Y61.779
X39.445Y61.478
G2X39.537Y60.945I-1.495J-0.533
G1Y59.818
X39.535Y59.744
X39.555Y59.700
X39.631Y59.550
X39.684Y59.448
X39.871Y59.545
G2X40.655Y59.752I0.784J-1.380
G1X40.880
G2X42.336Y58.798I0.000J-1.588
G2X42.543Y58.014I-1.380J-0.784
G1Y57.638
X42.480Y57.197
X42.834
G2X43.618Y56.990I0.000J-1.587
G2X44.440Y56.168I-0.634J-1.455
G1X44.599Y55.772
G2X44.722Y55.159I-1.464J-0.613
G1Y54.783
G2X44.647Y54.299I-1.588J0.000
G2X44.524Y53.719I-1.587J0.033
G1X44.422Y53.432
Y53.063
X44.605Y53.157
G2X45.389Y53.364I0.784J-1.380
G1X45.690
G2X46.849Y52.861I0.000J-1.588
G1X46.925Y52.786
X47.000Y52.711
G2X47.455Y51.939I-1.084J-1.159
G1X47.561Y51.559
G2X47.653Y51.025I-1.495J-0.533
G1Y50.832
X47.711Y50.582
X47.755Y50.436
G2X47.879Y49.823I-1.464J-0.613
G1Y48.696
X47.876Y48.604
G2X48.198Y48.127I-1.134J-1.111
G1X48.273Y47.977
X48.348Y47.827
X48.423Y47.676
X48.538Y47.426
G2X49.174Y46.699I-0.819J-1.360
G2X49.382Y45.915I-1.380J-0.784
G1Y45.464
G2X49.174Y44.680I-1.587J0.000
G2X48.803Y44.155I-1.455J0.634
G2X48.318Y43.802I-1.159J1.084
G1X48.387Y43.518
G2X48.480Y42.985I-1.495J-0.533
G1Y42.308
X48.452Y42.011
X48.578Y41.890
X48.653Y41.815
X48.693Y41.776
G2X49.222Y41.867I0.529J-1.497
G1X49.598
G2X50.757Y41.364I0.000J-1.588
G2X51.128Y40.838I-1.084J-1.159
G2X51.335Y40.054I-1.380J-0.784
G1Y39.828
G2X51.243Y39.295I-1.588J0.000
G2X50.960Y38.598I-1.570J0.233
G1Y37.741
X51.284Y37.602
X51.434Y37.526
G2X52.255Y36.705I-0.634J-1.455
G1X52.331Y36.555
G2X52.521Y36.003I-1.380J-0.784
G1X52.596Y35.703
X52.671Y35.402
G2X52.763Y34.869I-1.495J-0.533
G1Y32.915
G2X52.671Y32.381I-1.587J0.000
G1X52.643Y32.238
X52.688Y31.863
Y31.562
G2X52.611Y31.074I-1.587J0.000
G2X52.688Y30.585I-1.510J-0.488
G1Y30.510
G2X52.608Y30.013I-1.587J0.000
G2X52.406Y29.350I-1.583J0.121
G2X52.035Y28.825I-1.455J0.634
G1X51.929Y28.721
G2X52.087Y28.030I-1.429J-0.691
G1Y27.912
G2X52.162Y27.429I-1.512J-0.483
G1Y27.204
X52.162Y27.166
X52.162Y27.128
Y26.978
G2X52.087Y26.494I-1.588J0.000
G2X51.995Y25.994I-1.587J0.033
G2X51.509Y25.067I-1.570J0.233
G1X51.168Y24.791
G2X50.914Y24.335I-1.495J0.533
G2X50.607Y23.940I-1.391J0.765
G1X50.532Y23.865
X50.208Y23.600
Y22.995
G2X50.116Y22.462I-1.587J0.000
G2X49.926Y21.911I-1.570J0.233
G1X49.851Y21.760
G2X49.480Y21.235I-1.455J0.634
G1X49.404Y21.159
G2X48.245Y20.656I-1.159J1.084
G1X48.020
G2X46.860Y21.159I0.000J1.588
G1X46.785Y21.235
X46.710Y21.310
G2X46.403Y21.705I1.084J1.159
G1X46.188Y22.061
X46.113Y22.211
X45.956Y22.598
X45.888Y22.737
X45.813Y22.887
X45.674Y23.211
X45.615
G2X44.455Y23.714I0.000J1.588
G1X44.380Y23.790
X44.144Y24.068
G2X43.554Y24.466I0.569J1.482
G1X43.478Y24.541
X43.403Y24.616
X43.371Y24.647
X43.210Y24.639
X42.684
G2X41.900Y24.846I0.000J1.588
G2X41.374Y25.217I0.634J1.455
G1X41.299Y25.293
G2X40.928Y25.818I1.084J1.159
G1X40.853Y25.969
G2X40.646Y26.720I1.380J0.784
G1X40.572Y27.136
G2X40.021Y27.326I0.233J1.570
G1X39.871Y27.401
G2X39.345Y27.772I0.634J1.455
G2X39.038Y28.167I1.084J1.159
G1X38.824Y28.524
X38.749Y28.674
G2X38.542Y29.425I1.380J0.784
G2X38.466Y29.909I1.512J0.484
G1Y29.989
X38.358Y29.877
G2X37.832Y29.505I-1.159J1.084
G2X37.048Y29.298I-0.784J1.380
G1X36.747
G2X35.963Y29.505I0.000J1.588
G2X35.438Y29.877I0.634J1.455
G1X35.362Y29.952
X35.351Y29.963
G2X34.987Y30.252I0.796J1.374
G1X34.912Y30.328
G2X34.540Y30.853I1.084J1.159
G1X34.465Y31.003
X34.437Y31.055
X34.298Y31.137
X33.967Y31.102
X33.441
G2X32.657Y31.309I0.000J1.588
G2X32.131Y31.680I0.634J1.455
G1X32.056Y31.755
G2X31.685Y32.281I1.084J1.159
G1X31.610Y32.431
X31.530Y32.592
X31.519Y32.582
G2X30.748Y32.127I-1.159J1.084
G2X30.134Y32.004I-0.613J1.464
G1X30.059
G2X29.446Y32.127I0.000J1.588
G2X28.912Y32.374I0.388J1.539
G1X28.739Y32.286
G2X27.955Y32.079I-0.784J1.380
G1X27.504
G2X26.396Y32.530I0.000J1.588
G1X26.302
G2X25.518Y32.737I0.000J1.588
G1X25.367Y32.812
X25.186Y32.905
X25.099
G2X24.566Y32.998I0.000J1.588
G2X23.639Y33.484I0.233J1.570
G1X23.564Y33.559
G2X23.193Y34.085I1.084J1.159
G1X23.118Y34.235
X23.043Y34.385
G2X22.836Y35.169I1.380J0.784
G1Y35.545
X22.898Y35.986
X22.802Y35.888
X22.727Y35.813
G2X21.567Y35.310I-1.159J1.084
G1X21.117
G2X19.957Y35.813I0.000J1.588
G1X19.882Y35.888
G2X19.511Y36.414I1.084J1.159
G0Z5.080
G0X23.380Y37.360
G1Z-3.000F300.0
G1X23.410Y37.436F1000.0
X23.454Y37.581
X23.529Y37.882
X23.635Y38.262
X23.710Y38.488
X23.785Y38.713
X23.861Y38.939
X23.899Y39.068
X23.521
X23.154Y39.111
X23.182Y39.014
G2X23.305Y38.401I-1.464J-0.613
G1Y38.357
G2X23.380Y37.875I-1.512J-0.483
G1Y37.360
G0Z5.080
G0X31.810Y36.342
G1Z-3.000F300.0
G1X31.826Y36.384F1000.0
X31.901Y36.609
X32.054Y36.994
X32.127Y37.210
X32.252Y37.544
X32.309Y37.770
X32.379Y38.132
Y39.120
X32.321Y39.370
X32.279Y39.507
X32.185Y39.708
X31.976Y39.364
G2X31.571Y38.885I-1.391J0.765
G2X31.479Y38.393I-1.587J0.042
G1X31.460Y38.288
X31.496Y37.950
Y37.906
X31.567Y37.545
X31.642Y37.169
G2X31.722Y36.672I-1.508J-0.497
G1Y36.511
X31.810Y36.342
G0Z5.080
G0X39.070Y31.941
G1Z-3.000F300.0
G1X39.124Y32.046F1000.0
X39.200Y32.196
X39.275Y32.346
X39.343Y32.485
X39.385Y32.622
X39.491Y33.002
X39.536Y33.148
X39.642Y33.528
X39.669Y33.624
G2X39.744Y34.074I1.587J-0.033
G1Y34.611
X39.686Y34.861
X39.611Y35.162
X39.567Y35.307
X39.460Y35.688
X39.419Y35.824
X39.350Y35.963
G2X39.143Y36.715I1.380J0.784
G1X39.118Y36.801
G2X38.934Y37.341I1.387J0.773
G1X38.847Y37.753
X38.772Y38.129
X38.740Y38.238
G2X38.617Y38.851I1.464J0.613
G1Y40.279
G2X38.771Y40.963I1.587J0.000
G1X38.492Y41.030
X38.442Y41.007
X38.433Y40.999
X38.102Y40.729
X37.950Y40.521
X37.827Y40.247
X37.758Y40.108
X37.659Y39.830
Y38.808
X37.729Y38.447
X37.761Y38.338
X37.867Y37.957
X37.942Y37.657
X38.030Y37.244
X38.101Y36.914
X38.209Y36.618
X38.362Y36.233
X38.437Y36.008
X38.543Y35.628
G2X38.635Y35.127I-1.495J-0.533
G1X38.706Y34.764
X38.769Y34.500
X38.856Y34.088
G2X38.936Y33.591I-1.508J-0.497
G1Y33.548
G2X39.011Y33.065I-1.512J-0.483
G1Y32.195
X39.070Y31.941
G0Z5.080
G0X40.796Y44.638
G1Z-3.000F300.0
G1Y44.713F1000.0
G2X40.871Y45.196I1.588J0.000
G1Y45.617
X40.830Y45.603
X40.615Y45.473
X40.387Y45.207
X40.312Y45.132
X40.275Y45.094
X40.612Y44.820
X40.687Y44.745
X40.762Y44.670
X40.796Y44.638
G0Z5.080
G0X63.460Y0.001
G1Z-4.000F300.0
G1X0.040F1000.0
X0.004Y0.004
X0.000Y0.058
Y2.224
X63.500
Y4.446
X0.000
Y6.669
X63.500
Y8.891
X0.000
Y11.114
X63.500
Y13.336
X0.000
Y15.559
X63.500
Y17.781
X0.000
Y20.004
X45.338
X45.287Y20.107
X45.197Y20.291
X45.132Y20.486
X45.092Y20.688
X45.079Y20.891
Y21.476
X44.756Y21.615
X44.604Y21.691
X44.461Y21.783
X44.329Y21.889
X44.165Y21.931
X44.005Y21.990
X43.854Y22.066
X43.662Y22.165
X43.576Y22.226
X0.000
Y24.449
X41.091
X41.074Y24.466
X40.958Y24.586
X40.855Y24.719
X40.767Y24.861
X40.639Y25.046
X40.539Y25.249
X40.468Y25.463
X40.412Y25.619
X40.373Y25.781
X40.350Y25.946
X40.113Y26.012
X39.886Y26.116
X39.677Y26.253
X39.496Y26.420
X39.420Y26.495
X39.345Y26.570
X39.251Y26.671
X0.000
Y28.894
X35.147
X35.073Y28.973
X34.953Y29.138
X34.856Y29.316
X34.561Y29.391
X34.354Y29.435
X34.153Y29.508
X33.963Y29.608
X33.788Y29.732
X33.634Y29.877
X33.559Y29.952
X33.399Y30.125
X33.366
X33.157Y30.139
X32.950Y30.180
X32.752Y30.248
X32.538Y30.319
X32.336Y30.419
X32.150Y30.547
X31.963Y30.668
X31.792Y30.815
X31.645Y30.986
X31.560Y31.116
X31.328
G0Z5.080
G0X50.270Y20.004
G1Z-4.000F300.0
G1X63.500F1000.0
Y22.226
X52.260
X52.331Y22.361
X52.416Y22.537
X52.480Y22.722
X52.521Y22.913
X52.578Y23.116
X52.608Y23.325
X52.638Y23.425
X52.706Y23.564
X52.782Y23.714
X52.881Y23.924
X52.949Y24.147
X52.984Y24.377
X53.004Y24.449
X63.500
Y26.671
X53.064
Y27.504
X53.047Y27.736
X53.162Y27.848
X53.237Y27.923
X53.312Y27.998
X53.459Y28.155
X53.584Y28.332
X53.683Y28.524
X53.769Y28.699
X53.833Y28.884
X53.835Y28.894
X63.500
Y31.116
X53.991
X53.979Y31.175
X53.906Y31.376
X53.806Y31.566
X53.682Y31.741
X53.538Y31.895
X53.462Y31.970
X53.424Y32.010
X53.383Y32.209
X53.316Y32.401
X53.214Y32.687
Y33.215
X53.205Y33.339
X63.500
Y35.561
X53.452
X53.466Y35.606
X53.503Y35.800
X53.515Y35.996
Y36.597
X53.501Y36.806
X53.459Y37.012
X53.391Y37.210
X53.328Y37.408
X53.239Y37.595
X53.176Y37.784
X63.500
Y40.006
X51.952
X51.964Y40.042
X52.032Y40.240
X52.073Y40.446
X52.087Y40.655
Y41.407
X52.073Y41.615
X52.032Y41.822
X51.964Y42.020
X51.895Y42.229
X63.500
Y44.451
X49.994
X49.930Y44.520
X49.867Y44.584
X50.001Y44.831
X50.094Y45.023
X50.160Y45.227
X50.228Y45.425
X50.270Y45.631
X50.283Y45.840
Y46.216
X50.270Y46.425
X50.228Y46.631
X50.213Y46.674
X63.500
Y48.896
X49.532
Y49.147
X49.519Y49.350
X49.479Y49.552
X49.414Y49.747
X49.325Y49.931
X49.230Y50.114
X49.113Y50.284
X48.975Y50.436
X48.926Y50.621
X48.904Y50.788
X48.864Y50.953
X48.807Y51.113
X48.805Y51.119
X63.500
Y53.341
X48.366
X48.358Y53.363
X48.273Y53.538
X48.198Y53.688
X48.095Y53.885
X47.964Y54.067
X47.810Y54.229
X47.635Y54.367
X47.528Y54.550
X47.393Y54.721
X47.232Y54.875
X47.050Y55.006
X46.851Y55.111
X46.641Y55.185
X46.427Y55.229
X46.216Y55.243
X46.197
X46.052Y55.368
X45.893Y55.475
X45.723Y55.562
X45.719Y55.564
X63.500
Y57.786
X44.778
X44.745Y57.821
X44.596Y57.962
X44.428Y58.082
X44.248Y58.180
X44.361Y58.350
X44.452Y58.536
X44.519Y58.734
X44.559Y58.937
X44.572Y59.141
Y59.667
X44.555Y59.902
X44.530Y60.009
X63.500
Y62.231
X42.124
X42.121Y62.236
X41.971Y62.461
X41.960Y62.481
X41.885Y62.631
X41.786Y62.822
X41.661Y62.999
X41.514Y63.157
X41.439Y63.232
X41.364Y63.307
X41.206Y63.454
X41.029Y63.579
X40.838Y63.678
X40.654Y63.767
X40.459Y63.832
X40.257Y63.872
X40.054Y63.885
X39.828
X39.614Y63.871
X39.611Y63.877
X39.612Y63.951
Y64.145
X39.669Y64.383
X39.674Y64.454
X63.500
Y66.676
X38.783
X38.700Y66.735
X38.508Y66.834
X38.325Y66.923
X38.130Y66.989
X37.928Y67.028
X37.724Y67.041
X37.627
X37.465Y67.198
X37.281Y67.331
X37.081Y67.435
X36.897Y67.525
X36.702Y67.590
X36.500Y67.629
X36.296Y67.643
X35.996
X35.783Y67.628
X35.571Y67.584
X35.364Y67.511
X35.169Y67.410
X34.992Y67.285
X34.836Y67.139
X34.761Y67.064
X34.686Y66.989
X34.543Y66.836
X34.429Y66.676
X34.238
G0Z5.080
G0X28.260Y60.009
G1Z-4.000F300.0
G1X29.382F1000.0
X29.299Y60.128
X29.205Y60.311
X29.116Y60.495
X29.050Y60.690
X29.011Y60.892
X28.998Y61.095
Y61.170
X29.011Y61.374
X29.050Y61.576
X29.116Y61.771
X29.205Y61.955
X29.304Y62.146
X29.364Y62.231
X28.866
G0Z5.080
G0X22.204Y55.564
G1Z-4.000F300.0
G1X23.303F1000.0
X23.213Y55.694
X23.118Y55.877
X23.043Y56.028
X22.943Y56.238
X22.875Y56.461
X22.840Y56.691
X22.796Y56.853
X22.769Y57.020
X22.760Y57.188
Y57.381
X22.715Y57.560
X22.690Y57.743
X22.678Y57.786
X18.269
G0Z5.080
G0X29.688Y31.116
G1Z-4.000F300.0
G1X29.028F1000.0
X28.932Y31.070
X28.750Y31.008
X28.564Y30.969
X28.390Y30.918
X28.211Y30.887
X28.030Y30.876
X27.955
X27.746Y30.890
X27.540Y30.932
X27.342Y31.000
X27.138Y31.066
X27.034Y31.116
X0.000
Y33.339
X22.888
X22.816Y33.416
X22.691Y33.593
X22.592Y33.784
X22.457Y34.094
X22.240Y34.048
X22.018Y34.033
X21.793
X21.614Y34.043
X21.436Y34.073
X21.264Y34.123
X21.041Y34.108
X20.966
X20.757Y34.122
X20.551Y34.163
X20.353Y34.231
X20.149Y34.297
X19.957Y34.390
X19.749Y34.500
X19.556Y34.641
X19.386Y34.811
X19.245Y35.004
X19.135Y35.212
X19.060Y35.362
X18.967Y35.555
X18.965Y35.561
X0.000
Y37.784
X18.627
Y38.058
X18.445Y38.026
X18.261Y38.015
X17.810
X17.606Y38.029
X17.405Y38.068
X17.209Y38.133
X17.026Y38.223
X16.835Y38.322
X16.658Y38.447
X16.500Y38.594
X16.425Y38.669
X16.350Y38.744
X16.210Y38.893
X16.005Y39.029
X15.824Y39.195
X15.749Y39.270
X15.613Y39.414
X15.496Y39.574
X15.400Y39.748
X15.227Y39.844
X15.066Y39.961
X15.018Y40.006
X0.000
Y42.229
X12.581
X12.471Y42.385
X12.372Y42.576
X12.297Y42.727
X12.204Y42.919
X12.138Y43.123
X12.136Y43.126
X11.933Y43.144
X11.731Y43.189
X11.535Y43.260
X11.351Y43.355
X11.184Y43.472
X10.996Y43.593
X10.826Y43.741
X10.678Y43.911
X10.557Y44.099
X10.437Y44.273
X10.345Y44.451
X0.000
Y46.674
X8.707
X8.693Y46.701
X8.574Y46.842
X8.472Y46.996
X8.389Y47.160
X8.310Y47.320
X8.159Y47.461
X8.005Y47.627
X7.876Y47.814
X7.774Y48.018
X7.704Y48.233
X7.636Y48.431
X7.594Y48.637
X7.581Y48.846
Y48.896
X0.000
Y51.119
X7.280
Y51.326
X7.302Y51.589
X7.297Y51.619
X7.246Y51.793
X7.215Y51.972
X7.205Y52.153
Y52.378
X7.224Y52.622
X7.280Y52.861
Y53.205
X7.288Y53.341
X0.000
Y55.564
X10.787
X10.800Y55.578
X10.931Y55.771
X11.090Y55.942
X11.165Y56.017
X11.240Y56.093
X11.397Y56.240
X11.574Y56.365
X11.766Y56.464
X11.949Y56.553
X12.144Y56.618
X12.346Y56.658
X12.550Y56.671
X12.775
X12.965Y56.660
X13.154Y56.625
X13.337Y56.568
X13.511Y56.490
X13.640Y56.677
X13.795Y56.844
X13.870Y56.919
X13.999Y57.042
X14.141Y57.150
X14.293Y57.241
X14.392Y57.575
X14.458Y57.779
X14.462Y57.786
X0.000
Y60.009
X23.272
X23.339Y60.075
X23.494Y60.221
X23.668Y60.344
X23.856Y60.443
X23.998Y60.563
X24.089Y60.712
X24.195Y60.851
X24.316Y60.977
X24.391Y61.052
X24.536Y61.190
X24.700Y61.309
X24.879Y61.406
X25.067Y61.480
X25.261Y61.529
X25.513Y61.687
X25.478Y61.878
X25.466Y62.072
Y62.231
X0.000
Y64.454
X31.327
Y64.778
X31.340Y64.981
X31.380Y65.183
X31.445Y65.378
X31.534Y65.562
X31.610Y65.712
X31.709Y65.903
X31.834Y66.080
X31.981Y66.238
X32.138Y66.385
X32.315Y66.509
X32.506Y66.609
X32.645Y66.676
X0.000
Y68.899
X63.500
Y71.121
X0.000
Y73.344
X63.500
Y75.566
X0.000
Y77.789
X63.500
Y80.011
X0.000
Y82.234
X63.500
Y84.456
X0.000
Y86.678
X63.500
Y88.842
X63.496Y88.896
X63.460Y88.899
X0.040
G0Z5.080
G0X31.770Y37.784
G1Z-4.000F300.0
G1X31.928F1000.0
G0Z5.080
G0X39.221Y33.339
G1Z-4.000F300.0
G1X39.337F1000.0
G0Z5.080
G0X0.000Y0.058
G1Z-4.000F300.0
G1X0.004Y0.004F1000.0
X0.058Y0.000
X63.442
X63.496Y0.004
X63.500Y0.058
Y88.842
X63.496Y88.896
X63.442Y88.900
X0.058
X0.004Y88.896
X0.000Y88.842
Y0.058
G0Z5.080
G0X8.904Y46.353
G1Z-4.000F300.0
G1X8.693Y46.701F1000.0
G2X8.389Y47.160I1.151J1.093
G1X8.310Y47.320
X8.159Y47.461
G2X7.704Y48.233I1.084J1.159
G2X7.581Y48.846I1.464J0.613
G1Y49.675
X7.562Y49.715
G2X7.372Y50.267I1.380J0.784
G2X7.280Y50.800I1.495J0.533
G1Y51.326
X7.302Y51.589
X7.297Y51.619
G2X7.205Y52.153I1.495J0.533
G1Y52.378
G2X7.280Y52.861I1.588J0.000
G1Y53.205
G2X7.372Y53.738I1.588J0.000
G2X7.858Y54.665I1.570J-0.233
G1X7.933Y54.740
G2X8.459Y55.111I1.159J-1.084
G2X9.243Y55.318I0.784J-1.380
G1X9.469
G2X9.938Y55.247I0.000J-1.588
G2X10.704Y55.468I0.808J-1.366
G1X10.800Y55.578
G2X11.090Y55.942I1.374J-0.796
G1X11.165Y56.017
X11.240Y56.093
G2X11.766Y56.464I1.159J-1.084
G2X12.550Y56.671I0.784J-1.380
G1X12.775
G2X13.511Y56.490I0.000J-1.587
G2X13.795Y56.844I1.368J-0.805
G1X13.870Y56.919
G2X14.293Y57.241I1.159J-1.084
G1X14.392Y57.575
X14.551Y57.972
G2X14.922Y58.497I1.455J-0.634
G1X14.997Y58.572
X15.072Y58.648
G2X16.232Y59.151I1.159J-1.084
G1X16.457
G2X17.617Y58.648I0.000J-1.587
G1X17.692Y58.572
X17.767Y58.497
X17.842Y58.422
G2X18.213Y57.897I-1.084J-1.159
G1X18.289Y57.746
G2X18.491Y57.090I-1.380J-0.784
G1X18.830Y57.290
G2X19.614Y57.498I0.784J-1.380
G1X19.839
G2X20.623Y57.290I0.000J-1.587
G2X21.149Y56.919I-0.634J-1.455
G1X21.224Y56.844
X21.299Y56.769
X21.374Y56.694
G2X21.745Y56.168I-1.084J-1.159
G1X21.867Y55.897
X21.975Y55.792
X22.051Y55.717
X22.126Y55.642
X22.201Y55.567
G2X22.572Y55.041I-1.084J-1.159
G1X22.731Y54.645
G2X22.854Y54.031I-1.464J-0.613
G1Y53.731
X22.853Y53.673
X23.113Y53.988
G2X23.508Y54.295I1.159J-1.084
G1X23.845Y54.501
X23.888Y54.664
Y54.708
X23.889Y54.783
X23.888Y54.858
Y55.061
X23.809Y55.120
G2X23.118Y55.877I0.765J1.391
G1X23.043Y56.028
G2X22.840Y56.691I1.380J0.784
G2X22.760Y57.188I1.508J0.497
G1Y57.381
X22.690Y57.743
G2X22.610Y58.240I1.508J0.497
G1Y58.465
G2X22.702Y58.999I1.588J0.000
G2X23.188Y59.925I1.570J-0.233
G1X23.264Y60.000
X23.339Y60.075
G2X23.856Y60.443I1.159J-1.084
G1X23.998Y60.563
G2X24.316Y60.977I1.402J-0.745
G1X24.391Y61.052
G2X25.261Y61.529I1.159J-1.084
G1X25.513Y61.687
X25.466Y62.072
Y62.298
G2X27.053Y63.885I1.588J0.000
G1X27.279
G2X28.866Y62.298I0.000J-1.588
G1Y62.072
G2X28.363Y60.913I-1.588J0.000
G1X28.088Y60.679
X28.173Y60.351
X28.248Y60.051
G2X28.340Y59.517I-1.495J-0.533
G1Y58.916
X28.336Y58.798
X28.599Y58.944
G2X29.383Y59.151I0.784J-1.380
G1X29.788
X29.724Y59.346
G2X29.555Y59.806I1.387J0.773
G2X29.205Y60.311I1.106J1.139
G2X28.998Y61.095I1.380J0.784
G1Y61.170
G2X29.205Y61.955I1.587J0.000
G2X29.576Y62.480I1.455J-0.634
G2X30.736Y62.983I1.159J-1.084
G1X31.111
G2X31.678Y62.879I0.000J-1.587
G1X31.526Y63.262
X31.420Y63.643
G2X31.327Y64.176I1.495J0.533
G1Y64.778
G2X31.534Y65.562I1.588J0.000
G1X31.610Y65.712
G2X31.981Y66.238I1.455J-0.634
G2X32.506Y66.609I1.159J-1.084
G2X33.291Y66.816I0.784J-1.380
G1X33.591
G2X34.265Y66.666I0.000J-1.588
G1X34.418
X34.421
X34.686Y66.989
X34.761Y67.064
X34.836Y67.139
G2X35.996Y67.643I1.159J-1.084
G1X36.296
G2X37.081Y67.435I0.000J-1.588
G2X37.627Y67.041I-0.634J-1.455
G1X37.724
G2X38.508Y66.834I0.000J-1.587
G2X39.034Y66.463I-0.634J-1.455
G2X39.405Y65.937I-1.084J-1.159
G2X39.595Y65.386I-1.380J-0.784
G2X39.688Y64.853I-1.495J-0.533
G1Y64.627
G2X39.612Y64.145I-1.588J0.000
G1Y63.951
X39.611Y63.877
X39.614Y63.871
X39.828Y63.885
X40.054
G2X40.838Y63.678I0.000J-1.588
G2X41.364Y63.307I-0.634J-1.455
G1X41.439Y63.232
X41.514Y63.157
G2X41.885Y62.631I-1.084J-1.159
G1X41.960Y62.481
X41.971Y62.461
X42.121Y62.236
X42.336Y61.879
X42.495Y61.483
X42.528Y61.398
X42.684Y61.405
X42.759
G2X43.749Y61.059I0.000J-1.588
G2X44.572Y59.667I-0.765J-1.391
G1Y59.141
G2X44.248Y58.180I-1.588J0.000
G2X44.745Y57.821I-0.662J-1.443
G2X45.116Y57.295I-1.084J-1.159
G2X45.324Y56.511I-1.380J-0.784
G1Y55.760
X45.323Y55.722
X45.723Y55.562
G2X46.197Y55.243I-0.634J-1.455
G1X46.216
G2X47.635Y54.367I0.000J-1.588
G2X48.198Y53.688I-0.893J-1.312
G1X48.273Y53.538
G2X48.463Y52.987I-1.380J-0.784
G2X48.555Y52.453I-1.495J-0.533
G1Y51.775
X48.573Y51.734
X48.732Y51.338
X48.807Y51.113
G2X48.926Y50.621I-1.464J-0.613
G1X48.975Y50.436
G2X49.325Y49.931I-1.106J-1.139
G2X49.532Y49.147I-1.380J-0.784
G1Y48.395
X49.477Y47.980
X49.480Y47.977
G2X49.786Y47.582I-1.084J-1.159
G1X50.001Y47.226
X50.160Y46.829
G2X50.283Y46.216I-1.464J-0.613
G1Y45.840
G2X50.160Y45.227I-1.588J0.000
G1X50.001Y44.831
X49.867Y44.584
X49.930Y44.520
G2X50.386Y43.748I-1.084J-1.159
G1X50.480Y43.437
X50.757Y43.313
X50.908Y43.238
G2X51.433Y42.867I-0.634J-1.455
G1X51.509Y42.791
G2X51.964Y42.020I-1.084J-1.159
G2X52.087Y41.407I-1.464J-0.613
G1Y40.655
G2X51.964Y40.042I-1.588J0.000
G1X51.889Y39.816
X51.861Y39.721
Y39.603
X51.854Y39.454
X52.185Y39.184
G2X52.556Y38.659I-1.084J-1.159
G1X52.628Y38.517
X52.636Y38.508
X52.711Y38.433
X52.786Y38.358
G2X53.239Y37.595I-1.084J-1.159
G1X53.391Y37.210
G2X53.515Y36.597I-1.464J-0.613
G1Y35.996
G2X53.406Y35.419I-1.587J0.000
G1X53.440Y35.094
Y34.418
G2X53.316Y33.804I-1.587J0.000
G1X53.241Y33.579
X53.198Y33.438
X53.214Y33.215
Y32.687
X53.316Y32.401
X53.424Y32.010
X53.462Y31.970
X53.538Y31.895
G2X54.024Y30.968I-1.084J-1.159
G2X54.116Y30.435I-1.495J-0.533
G1Y30.059
G2X53.993Y29.446I-1.588J0.000
G1X53.917Y29.220
X53.873Y29.075
G2X53.683Y28.524I-1.570J0.233
G2X53.312Y27.998I-1.455J0.634
G1X53.237Y27.923
X53.162Y27.848
X53.047Y27.736
X53.064Y27.504
Y26.602
G2X52.932Y25.970I-1.587J0.000
G1X52.988Y25.583
G2X53.064Y25.099I-1.512J-0.484
G1Y24.874
G2X52.984Y24.377I-1.587J0.000
G2X52.782Y23.714I-1.583J0.121
G1X52.706Y23.564
X52.638Y23.425
X52.608Y23.325
X52.521Y22.913
G2X52.331Y22.361I-1.570J0.233
G2X51.959Y21.836I-1.455J0.634
G1X51.884Y21.761
X51.809Y21.685
G2X50.763Y21.186I-1.159J1.084
G1X50.730Y21.071
G2X50.527Y20.408I-1.583J0.121
G2X50.156Y19.882I-1.455J0.634
G1X50.081Y19.807
X50.006Y19.732
X49.930Y19.656
X49.855Y19.581
G2X49.330Y19.210I-1.159J1.084
G2X48.676Y19.008I-0.784J1.380
G2X47.644Y18.627I-1.032J1.206
G1X47.193
G2X46.033Y19.130I0.000J1.588
G1X45.958Y19.206
X45.883Y19.281
X45.808Y19.356
X45.733Y19.431
G2X45.362Y19.957I1.084J1.159
G1X45.287Y20.107
G2X45.079Y20.891I1.380J0.784
G1Y21.476
X44.756Y21.615
G2X44.329Y21.889I0.634J1.455
G2X43.854Y22.066I0.309J1.557
G2X43.328Y22.437I0.634J1.455
G1X43.253Y22.512
G2X42.922Y22.953I1.084J1.159
G1X42.672Y23.034
G2X41.900Y23.489I0.388J1.539
G1X41.825Y23.564
X41.750Y23.639
G2X41.382Y24.158I1.084J1.159
G1X41.299Y24.241
X41.224Y24.316
X41.149Y24.391
X41.074Y24.466
G2X40.767Y24.861I1.084J1.159
G2X40.468Y25.463I1.241J0.990
G2X40.350Y25.946I1.464J0.613
G2X39.496Y26.420I0.305J1.558
G1X39.420Y26.495
X39.345Y26.570
G2X38.974Y27.096I1.084J1.159
G1X38.903Y27.238
X38.894Y27.246
G2X38.523Y27.772I1.084J1.159
G1X38.419Y27.994
X38.283Y27.927
G2X37.499Y27.720I-0.784J1.380
G1X37.198
G2X36.414Y27.927I0.000J1.588
G1X36.264Y28.002
G2X35.738Y28.374I0.634J1.455
G1X35.726Y28.385
G2X35.362Y28.674I0.796J1.374
G1X35.287Y28.749
X35.212Y28.825
G2X34.856Y29.316I1.084J1.159
G1X34.561Y29.391
G2X33.634Y29.877I0.233J1.570
G1X33.559Y29.952
X33.399Y30.125
X33.366
G2X32.752Y30.248I0.000J1.588
G2X32.150Y30.547I0.388J1.539
G2X31.524Y31.173I0.765J1.391
G1X31.511Y31.189
G2X30.811Y31.027I-0.700J1.425
G1X30.209
G2X29.488Y31.200I0.000J1.587
G1X29.265Y31.256
G2X28.564Y30.969I-0.934J1.283
G2X28.030Y30.876I-0.533J1.495
G1X27.955
G2X27.342Y31.000I0.000J1.588
G1X26.945Y31.159
G2X26.420Y31.530I0.634J1.455
G1X26.324Y31.628
X26.302
G2X25.518Y31.835I0.000J1.588
G1X25.312Y31.943
X25.099Y31.928
X24.874
G2X24.261Y32.052I0.000J1.588
G2X23.489Y32.507I0.388J1.539
G1X23.414Y32.582
G2X23.043Y33.108I1.084J1.159
G1X22.971Y33.249
X22.963Y33.258
G2X22.592Y33.784I1.084J1.159
G1X22.457Y34.094
X22.018Y34.033
X21.793
G2X21.264Y34.123I0.000J1.588
G1X21.041Y34.108
X20.966
G2X20.353Y34.231I0.000J1.587
G1X19.957Y34.390
G2X19.135Y35.212I0.634J1.455
G1X19.060Y35.362
X18.901Y35.758
G2X18.778Y36.372I1.464J0.613
G1Y36.866
X18.751Y36.961
G2X18.627Y37.574I1.464J0.613
G1Y38.058
X18.261Y38.015
X17.810
G2X17.026Y38.223I0.000J1.588
G2X16.500Y38.594I0.634J1.455
G1X16.425Y38.669
X16.350Y38.744
X16.210Y38.893
G2X15.824Y39.195I0.773J1.386
G1X15.749Y39.270
G2X15.400Y39.748I1.084J1.159
G2X14.922Y40.097I0.682J1.434
G1X14.847Y40.172
X14.772Y40.247
G2X14.401Y40.773I1.084J1.159
G2X14.196Y41.472I1.380J0.784
G1X14.053
G2X13.269Y41.679I0.000J1.587
G2X12.743Y42.051I0.634J1.455
G2X12.372Y42.576I1.084J1.159
G1X12.297Y42.727
X12.138Y43.123
X12.136Y43.126
G2X11.184Y43.472I0.038J1.587
G2X10.557Y44.099I0.765J1.391
G2X10.211Y45.089I1.241J0.990
G1Y45.397
G2X9.286Y45.883I0.235J1.570
G1X9.211Y45.958
G2X8.904Y46.353I1.084J1.159
G0Z5.080
G0X33.030Y55.996
G1Z-4.000F300.0
G1X33.121Y55.869F1000.0
X33.289Y55.987
X33.538Y56.298
X33.576Y56.451
G2X33.030Y55.996I-1.263J0.962
G0Z5.080
G0X31.852Y37.376
G1Z-4.000F300.0
G1X31.858Y37.395F1000.0
X31.928Y37.756
Y38.519
X31.921Y38.543
X31.895Y38.519
X31.820Y38.443
X31.791Y38.413
X31.722Y38.068
Y37.981
X31.792Y37.620
X31.852Y37.376
G0Z5.080
G0X38.543Y36.680
G1Z-4.000F300.0
G1X38.541Y36.747F1000.0
Y36.866
X38.482Y37.126
X38.286Y37.364
X38.312Y37.244
X38.353Y37.156
X38.512Y36.759
X38.543Y36.680
G0Z5.080
G0X39.237Y32.933
G1Z-4.000F300.0
G1X39.310Y33.223F1000.0
X39.368Y33.474
G2X39.443Y33.923I1.587J-0.033
G1Y34.085
X39.391Y34.297
X39.350Y34.385
X39.275Y34.535
X39.200Y34.686
X39.124Y34.836
X39.049Y34.986
X38.974Y35.137
X38.832Y35.471
X38.861Y35.202
X38.919Y34.951
X39.007Y34.539
X39.082Y34.163
G2X39.161Y33.666I-1.508J-0.497
G1Y33.623
G2X39.237Y33.140I-1.512J-0.483
G1Y32.933
G0Z5.080
G0X63.460Y0.001
G1Z-5.000F300.0
G1X0.040F1000.0
X0.004Y0.004
X0.000Y0.058
Y2.224
X63.500
Y4.446
X0.000
Y6.669
X63.500
Y8.891
X0.000
Y11.114
X63.500
Y13.336
X0.000
Y15.559
X63.500
Y17.781
X52.483
X52.556Y17.928
X52.642Y18.103
X52.706Y18.288
X52.746Y18.479
X52.804Y18.682
X52.834Y18.891
X52.884Y19.083
X52.910Y19.280
X53.082Y19.581
X53.168Y19.756
X53.232Y19.941
X53.245Y20.004
X63.500
Y22.226
X53.368
X53.421Y22.450
X53.440Y22.695
Y22.968
X53.608Y23.263
X53.697Y23.447
X53.763Y23.642
X53.802Y23.844
X53.815Y24.047
Y24.241
X53.842Y24.336
X53.881Y24.449
X63.500
Y26.671
X54.595
X54.603Y26.687
X54.669Y26.891
X54.737Y27.089
X54.778Y27.295
X54.792Y27.504
Y28.782
X54.784Y28.894
X63.500
Y31.116
X55.018
Y32.539
X54.999Y32.783
X54.943Y33.022
Y33.339
X63.500
Y35.561
X53.954
X54.024Y35.838
X54.075Y36.012
X54.106Y36.191
X54.116Y36.372
Y37.123
X54.102Y37.332
X54.061Y37.538
X53.993Y37.736
X53.977Y37.784
X63.500
Y40.006
X53.112
X53.023Y40.136
X52.886Y40.288
X52.914Y40.580
Y41.407
X52.899Y41.622
X52.854Y41.836
X52.781Y42.042
X52.684Y42.229
X63.500
Y44.451
X51.104
X50.911Y44.518
X50.697Y44.560
X50.648Y44.645
X50.682Y44.681
X50.829Y44.838
X50.954Y45.015
X51.053Y45.206
X51.128Y45.357
X51.217Y45.540
X51.283Y45.735
X51.322Y45.937
X51.335Y46.141
Y46.674
X63.500
Y48.896
X50.885
Y48.996
X50.874Y49.177
X50.843Y49.356
X50.792Y49.530
X50.751Y49.723
X50.686Y49.910
X50.620Y50.114
X50.527Y50.307
X50.452Y50.457
X50.356Y50.642
X50.237Y50.813
X50.226Y50.833
X50.127Y51.024
X50.060Y51.119
X63.500
Y53.341
X49.470
X49.457Y53.387
Y53.731
X49.444Y53.934
X49.404Y54.136
X49.339Y54.331
X49.250Y54.515
X49.150Y54.706
X49.025Y54.883
X48.878Y55.041
X48.701Y55.204
X48.573Y55.492
X48.534Y55.564
X63.500
Y57.786
X47.723
X47.723Y57.787
X47.598Y57.964
X47.451Y58.122
X47.295Y58.267
X47.118Y58.393
X46.923Y58.494
X46.716Y58.567
X46.504Y58.610
X46.291Y58.625
X45.915
X45.731Y58.614
X45.549Y58.582
X45.372Y58.529
X45.361Y58.543
X45.442Y58.719
X45.501Y58.906
X45.537Y59.098
X45.549Y59.292
Y59.517
X45.532Y59.748
X45.482Y59.975
X45.469Y60.009
X63.500
Y62.231
X44.882
X44.817Y62.323
X44.670Y62.480
X44.513Y62.627
X44.336Y62.752
X44.144Y62.851
X43.994Y62.927
X43.836Y62.986
X43.673Y63.027
X43.618Y63.081
X43.543Y63.157
X43.468Y63.232
X43.310Y63.379
X43.130Y63.505
X42.934Y63.606
X42.727Y63.679
X42.515Y63.721
X42.420Y64.038
X42.349Y64.253
X42.249Y64.454
X63.500
Y66.676
X40.264
X40.250Y66.722
X40.157Y66.914
X40.057Y67.106
X39.933Y67.282
X39.786Y67.440
X39.710Y67.515
X39.635Y67.590
X39.478Y67.737
X39.301Y67.862
X39.110Y67.961
X38.917Y68.054
X38.713Y68.120
X38.576Y68.171
X38.370Y68.296
X38.146Y68.389
X37.912Y68.447
X37.681Y68.717
X37.606Y68.793
X37.492Y68.899
X63.500
Y71.121
G0Z5.080
G0X29.454Y66.676
G1Z-5.000F300.0
G1X29.415F1000.0
G0Z5.080
G0X18.947Y60.009
G1Z-5.000F300.0
G1X19.433F1000.0
X19.431Y60.013
X19.392Y60.215
X19.379Y60.419
Y61.020
X19.392Y61.224
X19.431Y61.426
X19.497Y61.621
X19.586Y61.804
X19.661Y61.955
X19.760Y62.146
X19.821Y62.231
G0Z5.080
G0X45.962Y17.781
G1Z-5.000F300.0
G1X0.000F1000.0
Y20.004
X44.733
X44.717Y20.081
X44.704Y20.290
Y20.506
X44.638
X44.425Y20.520
X44.213Y20.564
X44.006Y20.637
X43.811Y20.738
X43.634Y20.864
X43.478Y21.009
X43.403Y21.084
X43.328Y21.159
X43.195Y21.300
X43.080Y21.455
X42.986Y21.623
X42.822Y21.681
X42.608Y21.752
X42.404Y21.853
X42.216Y21.983
X42.051Y22.136
X41.975Y22.212
X41.961Y22.226
X0.000
Y24.449
X39.742
X39.649Y24.548
X39.524Y24.725
X39.425Y24.916
X39.419Y24.927
X39.270Y25.067
X39.195Y25.142
X39.040Y25.310
X38.911Y25.498
X38.749Y25.539
X38.592Y25.598
X38.443Y25.673
X38.252Y25.772
X38.075Y25.897
X37.917Y26.044
X37.842Y26.119
X37.767Y26.194
X37.692Y26.270
X37.617Y26.345
X37.470Y26.502
X37.350Y26.671
X0.000
Y28.894
X33.504
X33.489Y28.905
X33.333Y29.050
X33.258Y29.125
X33.183Y29.200
X33.087Y29.298
X32.915
X32.704Y29.312
X32.493Y29.355
X32.290Y29.427
X32.099Y29.524
X31.925Y29.645
X31.726Y29.774
X31.547Y29.934
X31.393Y30.119
X31.271Y30.323
X31.080Y30.287
X30.886Y30.275
X30.392
X30.297Y30.248
X30.099Y30.180
X29.892Y30.139
X29.683Y30.125
X29.608
X29.428Y30.135
X29.249Y30.166
X29.075Y30.217
X28.889Y30.256
X28.705Y30.167
X28.510Y30.102
X28.309Y30.063
X28.105Y30.050
X27.654
X27.451Y30.063
X27.249Y30.102
X27.054Y30.168
X26.870Y30.257
X26.666Y30.364
X26.479Y30.501
X26.452
X26.208Y30.520
X25.969Y30.576
X25.625
X25.422Y30.589
X25.220Y30.628
X25.025Y30.694
X24.841Y30.783
X24.801Y30.801
X24.724
X24.520Y30.814
X24.318Y30.854
X24.123Y30.919
X23.940Y31.008
X23.748Y31.108
X23.736Y31.116
X0.000
Y33.339
X19.736
X19.689Y33.363
X19.512Y33.488
X19.356Y33.634
X19.281Y33.709
X19.206Y33.784
X19.130Y33.859
X19.055Y33.935
X18.939Y34.055
X18.837Y34.187
X18.748Y34.329
X18.630Y34.500
X18.534Y34.686
X18.463Y34.884
X18.419Y35.087
X18.368Y35.260
X18.337Y35.439
X18.330Y35.561
X0.000
Y37.784
X15.518
X15.517Y37.786
X15.367Y38.012
X15.248Y38.183
X15.152Y38.368
X15.077Y38.518
X14.982Y38.716
X14.825Y38.809
X14.679Y38.919
X14.546Y39.045
X14.431Y39.165
X14.328Y39.297
X14.240Y39.439
X14.112Y39.625
X14.011Y39.828
X13.953Y40.006
X0.000
Y42.229
X11.196
X11.089Y42.281
X10.939Y42.356
X10.748Y42.455
X10.571Y42.580
X10.413Y42.727
X10.338Y42.802
X10.263Y42.877
X10.188Y42.952
X10.041Y43.110
X9.916Y43.287
X9.817Y43.478
X9.731Y43.654
X9.436Y43.784
X9.245Y43.883
X9.068Y44.008
X8.910Y44.155
X8.835Y44.230
X8.760Y44.305
X8.624Y44.451
X0.000
Y46.674
X7.046
X7.027Y46.730
X6.959Y46.928
X6.918Y47.134
X6.904Y47.343
Y48.846
X6.910Y48.896
X0.000
Y51.119
X6.378
Y51.326
X6.387Y51.494
X6.414Y51.661
X6.458Y51.823
X6.480Y51.991
X6.520Y52.156
X6.577Y52.315
X6.605Y52.416
X6.577Y52.516
X6.509Y52.714
X6.467Y52.921
X6.453Y53.130
Y53.341
X0.000
Y55.564
X6.663
X6.736Y55.717
X6.835Y55.909
X6.960Y56.085
X7.107Y56.243
X7.182Y56.318
X7.257Y56.393
X7.411Y56.537
X7.585Y56.661
X7.776Y56.761
X7.977Y56.834
X8.183Y56.879
X8.209Y57.104
X8.267Y57.325
X8.355Y57.534
X8.407Y57.745
Y57.786
X0.000
Y60.009
X9.864
X10.007Y60.038
X10.220Y60.053
X10.746
X10.959Y60.038
X11.102Y60.009
X14.639
G0Z5.080
G0X19.821Y62.231
G1Z-5.000F300.0
G1X0.000F1000.0
Y64.454
X24.524
X24.528Y64.467
X24.614Y64.648
X24.639Y64.734
Y64.853
X24.658Y65.097
X24.714Y65.335
Y65.379
X24.728Y65.588
X24.770Y65.794
X24.838Y65.992
X24.908Y66.206
X25.010Y66.411
X25.139Y66.598
X25.212Y66.676
X0.000
Y68.899
X34.348
G0Z5.080
G0X63.500Y71.121
G1Z-5.000F300.0
G1X0.000F1000.0
Y73.344
X63.500
Y75.566
X0.000
Y77.789
X63.500
Y80.011
X0.000
Y82.234
X63.500
Y84.456
X0.000
Y86.678
X63.500
Y88.842
X63.496Y88.896
X63.460Y88.899
X0.040
G0Z5.080
G0X0.004Y0.004
G1Z-5.000F300.0
G1X0.058Y0.000F1000.0
X63.442
X63.496Y0.004
X63.500Y0.058
Y88.842
X63.496Y88.896
X63.442Y88.900
X0.058
X0.004Y88.896
X0.000Y88.842
Y0.058
X0.004Y0.004
G0Z5.080
G0X16.381Y36.671
G1Z-5.000F300.0
G2X15.818Y37.260I0.828J1.354F1000.0
G1X15.603Y37.616
X15.528Y37.767
X15.517Y37.786
X15.367Y38.012
X15.152Y38.368
X15.077Y38.518
X14.982Y38.716
G2X14.546Y39.045I0.724J1.413
G2X14.240Y39.439I1.084J1.159
G2X13.941Y40.042I1.241J0.990
G1X13.866Y40.267
X13.808Y40.429
G2X13.364Y40.543I0.169J1.578
G2X12.593Y40.999I0.388J1.539
G1X12.517Y41.074
X12.442Y41.149
G2X12.071Y41.674I1.084J1.159
G1X11.996Y41.825
X11.968Y41.877
X11.657Y42.088
G2X11.089Y42.281I0.216J1.573
G1X10.939Y42.356
G2X10.413Y42.727I0.634J1.455
G1X10.338Y42.802
X10.263Y42.877
X10.188Y42.952
G2X9.817Y43.478I1.084J1.159
G1X9.731Y43.654
X9.436Y43.784
G2X8.910Y44.155I0.634J1.455
G1X8.835Y44.230
X8.760Y44.305
G2X8.389Y44.831I1.084J1.159
G2X8.224Y45.251I1.380J0.784
G1X7.953Y45.426
G2X7.262Y46.183I0.765J1.391
G1X7.187Y46.334
X7.027Y46.730
G2X6.904Y47.343I1.464J0.613
G1Y48.846
X6.941Y49.184
X6.909Y49.401
X6.841Y49.704
X6.660Y50.016
X6.501Y50.412
G2X6.378Y51.025I1.464J0.613
G1Y51.326
G2X6.458Y51.823I1.588J0.000
G2X6.577Y52.315I1.583J-0.121
G1X6.605Y52.416
X6.577Y52.516
G2X6.453Y53.130I1.464J0.613
G1Y54.557
G2X6.533Y55.054I1.588J0.000
G2X6.736Y55.717I1.583J-0.121
G2X7.107Y56.243I1.455J-0.634
G1X7.182Y56.318
X7.257Y56.393
G2X8.183Y56.879I1.159J-1.084
G2X8.355Y57.534I1.586J-0.067
G1X8.407Y57.745
Y58.164
G2X8.614Y58.949I1.588J0.000
G2X8.985Y59.474I1.455J-0.634
G1X9.061Y59.549
G2X10.220Y60.053I1.159J-1.084
G1X10.746
G2X11.906Y59.549I0.000J-1.587
G1X11.981Y59.474
X12.056Y59.399
G2X12.427Y58.873I-1.084J-1.159
G1X12.502Y58.723
X12.526Y58.680
X12.775Y58.700
X12.997
G2X13.344Y59.174I1.432J-0.686
G1X13.419Y59.249
X13.494Y59.324
G2X14.474Y59.817I1.159J-1.084
G1X14.697Y60.075
X14.705Y60.084
X14.916Y60.432
X14.927Y60.452
X15.002Y60.602
X15.077Y60.752
X15.152Y60.902
G2X15.523Y61.428I1.455J-0.634
G1X15.599Y61.503
X15.674Y61.578
G2X16.199Y61.950I1.159J-1.084
G2X16.983Y62.157I0.784J-1.380
G1X17.059
G2X17.843Y61.950I0.000J-1.587
G2X18.368Y61.578I-0.634J-1.455
G2X18.854Y60.652I-1.084J-1.159
G2X18.947Y60.118I-1.495J-0.533
G1Y59.667
X18.945Y59.585
G2X19.167Y58.897I-1.360J-0.819
G1X19.463Y58.925
X19.839
X20.047Y58.912
X20.011Y59.054
X19.957Y59.109
G2X19.586Y59.635I1.084J1.159
G2X19.379Y60.419I1.380J0.784
G1Y61.020
G2X19.586Y61.804I1.588J0.000
G1X19.661Y61.955
G2X20.032Y62.480I1.455J-0.634
G2X21.192Y62.983I1.159J-1.084
G1X21.643
G2X22.321Y62.831I0.000J-1.587
G1X22.717Y62.761
G2X23.822Y63.209I1.105J-1.140
G1X24.198
X24.414Y63.194
Y63.876
G2X24.614Y64.648I1.588J0.000
G1X24.639Y64.734
Y64.853
G2X24.714Y65.335I1.588J0.000
G1Y65.379
G2X24.838Y65.992I1.588J0.000
G2X25.293Y66.764I1.539J-0.388
G2X26.452Y67.267I1.159J-1.084
G1X26.527
X26.644Y67.262
G2X27.579Y67.567I0.935J-1.283
G1X27.955
G2X29.115Y67.064I0.000J-1.588
G2X29.449Y66.617I-1.084J-1.159
G2X29.952Y67.741I1.587J-0.036
G1X30.027Y67.816
G2X30.953Y68.302I1.159J-1.084
G2X31.487Y68.394I0.533J-1.495
G1X32.013
G2X32.579Y68.290I0.000J-1.588
G1X32.807Y68.412
G2X33.591Y68.619I0.784J-1.380
G1X33.817
X34.044Y68.603
X34.085Y68.642
X34.160Y68.717
X34.235Y68.793
G2X35.362Y69.295I1.159J-1.084
G2X35.846Y69.371I0.484J-1.512
G1X36.296
G2X37.081Y69.164I0.000J-1.587
G2X37.606Y68.793I-0.634J-1.455
G1X37.681Y68.717
X37.912Y68.447
G2X38.576Y68.171I-0.263J-1.566
G1X38.713Y68.120
X39.110Y67.961
G2X39.635Y67.590I-0.634J-1.455
G1X39.710Y67.515
X39.786Y67.440
G2X40.157Y66.914I-1.084J-1.159
G1X40.316Y66.518
G2X40.439Y65.905I-1.464J-0.613
G1Y65.754
X40.439Y65.717
X40.439Y65.679
Y65.611
G2X41.139Y65.406I-0.085J-1.585
G1X41.289Y65.331
G2X41.815Y64.960I-0.634J-1.455
G1X41.890Y64.885
X41.965Y64.810
G2X42.420Y64.038I-1.084J-1.159
G1X42.515Y63.721
G2X43.468Y63.232I-0.207J-1.574
G1X43.543Y63.157
X43.618Y63.081
X43.673Y63.027
G2X44.144Y62.851I-0.313J-1.556
G2X44.670Y62.480I-0.634J-1.455
G2X45.041Y61.955I-1.084J-1.159
G1X45.116Y61.804
X45.275Y61.408
G2X45.399Y60.795I-1.464J-0.613
G1Y60.191
G2X45.549Y59.517I-1.437J-0.674
G1Y59.292
G2X45.361Y58.543I-1.588J0.000
G1X45.372Y58.529
G2X45.915Y58.625I0.543J-1.492
G1X46.291
G2X47.451Y58.122I0.000J-1.588
G2X47.822Y57.596I-1.084J-1.159
G1X47.897Y57.446
X47.972Y57.295
X48.129Y56.908
X48.281Y56.523
G2X48.405Y55.910I-1.464J-0.613
G1Y55.867
X48.440Y55.736
X48.573Y55.492
X48.701Y55.204
X48.878Y55.041
G2X49.250Y54.515I-1.084J-1.159
G2X49.457Y53.731I-1.380J-0.784
G1Y53.387
X49.481Y53.301
X49.550Y53.162
X49.709Y52.766
G2X49.832Y52.153I-1.464J-0.613
G1Y51.401
X49.832Y51.382
X49.855Y51.358
G2X50.226Y50.833I-1.084J-1.159
G1X50.237Y50.813
X50.452Y50.457
X50.527Y50.307
X50.686Y49.910
X50.792Y49.530
G2X50.885Y48.996I-1.495J-0.533
G1Y48.546
X50.837Y48.159
X50.978Y47.902
X51.053Y47.752
X51.212Y47.355
G2X51.335Y46.742I-1.464J-0.613
G1Y46.141
G2X51.128Y45.357I-1.588J0.000
G1X51.053Y45.206
G2X50.682Y44.681I-1.455J0.634
G1X50.648Y44.645
X50.697Y44.560
G2X51.659Y44.069I-0.198J-1.575
G1X51.770Y43.954
X51.884Y43.844
X51.959Y43.768
X52.035Y43.693
G2X52.406Y43.168I-1.084J-1.159
G2X52.596Y42.616I-1.380J-0.784
G1X52.681Y42.234
G2X52.914Y41.407I-1.355J-0.827
G1Y40.580
X52.886Y40.288
G2X53.347Y39.385I-1.109J-1.135
G1X53.428Y39.046
G2X53.692Y38.488I-1.275J-0.946
G1X53.765Y38.271
X53.834Y38.133
X53.993Y37.736
G2X54.116Y37.123I-1.464J-0.613
G1Y36.372
G2X54.024Y35.838I-1.588J0.000
G1X53.948Y35.538
X53.904Y35.332
X54.139Y35.126
X54.214Y35.051
X54.289Y34.976
G2X54.660Y34.450I-1.084J-1.159
G2X54.850Y33.899I-1.380J-0.784
G2X54.943Y33.366I-1.495J-0.533
G1Y33.022
G2X55.018Y32.539I-1.512J-0.483
G1Y30.736
G2X54.943Y30.253I-1.587J0.000
G1Y29.759
G2X54.819Y29.145I-1.588J0.000
G1X54.777Y29.004
X54.792Y28.782
Y27.504
G2X54.669Y26.891I-1.587J0.000
G1X54.510Y26.495
G2X54.139Y25.969I-1.455J0.634
G1X54.024Y25.858
X54.041Y25.625
Y25.475
G2X53.966Y24.993I-1.588J0.000
G1Y24.949
G2X53.842Y24.336I-1.587J0.000
G1X53.815Y24.241
Y24.047
G2X53.608Y23.263I-1.587J0.000
G1X53.440Y22.968
Y22.695
G2X53.364Y22.212I-1.587J0.000
G1Y20.666
G2X53.272Y20.132I-1.588J0.000
G2X53.082Y19.581I-1.570J0.233
G1X52.910Y19.280
X52.834Y18.891
X52.746Y18.479
G2X52.556Y17.928I-1.570J0.233
G1X52.481Y17.777
G2X51.659Y16.956I-1.455J0.634
G2X50.875Y16.749I-0.784J1.380
G1X50.575
X50.563Y16.749
X50.382Y16.655
G2X49.598Y16.448I-0.784J1.380
G1X49.147
X49.145
X49.104Y16.430
G2X48.320Y16.223I-0.784J1.380
G1X47.944
G2X46.785Y16.726I0.000J1.588
G1X46.710Y16.801
X46.635Y16.876
X46.559Y16.951
G2X46.253Y17.346I1.084J1.159
G1X46.102Y17.571
X45.952Y17.797
X45.732Y18.166
X45.516Y18.520
X45.507Y18.529
X45.432Y18.604
G2X45.061Y19.130I1.084J1.159
G1X44.986Y19.280
X44.827Y19.677
G2X44.704Y20.290I1.464J0.613
G1Y20.506
X44.638
G2X43.478Y21.009I0.000J1.588
G1X43.403Y21.084
X43.328Y21.159
G2X42.986Y21.623I1.084J1.159
G1X42.822Y21.681
G2X42.051Y22.136I0.388J1.539
G1X41.975Y22.212
X41.900Y22.287
G2X41.593Y22.681I1.084J1.159
G1X41.415Y22.960
X41.149Y23.188
X41.074Y23.264
X40.928Y23.419
X40.773Y23.564
X40.698Y23.639
X40.623Y23.714
X40.548Y23.790
X40.406Y23.941
G2X39.871Y24.316I0.625J1.459
G1X39.796Y24.391
G2X39.425Y24.916I1.084J1.159
G1X39.419Y24.927
X39.270Y25.067
X39.195Y25.142
G2X38.911Y25.498I1.084J1.159
G2X38.443Y25.673I0.317J1.556
G2X37.917Y26.044I0.634J1.455
G1X37.842Y26.119
X37.767Y26.194
X37.692Y26.270
X37.617Y26.345
G2X37.246Y26.870I1.084J1.159
G1X37.246Y26.871
X37.116Y26.911
X36.852Y26.973
G2X36.251Y27.142I0.121J1.583
G2X35.738Y27.326I0.271J1.564
G2X35.212Y27.697I0.634J1.455
G1X35.137Y27.772
X35.062Y27.848
X34.987Y27.923
X34.847Y28.071
X34.460Y28.228
G2X33.935Y28.599I0.634J1.455
G1X33.859Y28.674
X33.851Y28.683
G2X33.333Y29.050I0.642J1.452
G1X33.258Y29.125
X33.183Y29.200
X33.087Y29.298
X32.915
G2X31.925Y29.645I0.000J1.588
G2X31.271Y30.323I0.765J1.391
G1X30.886Y30.275
X30.392
X30.297Y30.248
G2X29.683Y30.125I-0.613J1.464
G1X29.608
G2X29.075Y30.217I0.000J1.588
G1X28.889Y30.256
G2X28.105Y30.050I-0.783J1.381
G1X27.654
G2X26.870Y30.257I0.000J1.588
G2X26.479Y30.501I0.634J1.455
G1X26.452
G2X25.969Y30.576I0.000J1.588
G1X25.625
G2X24.841Y30.783I0.000J1.588
G1X24.801Y30.801
X24.724
G2X23.940Y31.008I0.000J1.588
G2X23.414Y31.380I0.634J1.455
G1X23.339Y31.455
X23.264Y31.530
G2X22.957Y31.925I1.084J1.159
G1X22.935Y31.953
X22.907Y31.974
G2X22.372Y32.455I0.765J1.391
G1X22.244
G2X21.522Y32.628I0.000J1.588
G2X21.009Y32.812I0.271J1.564
G2X20.534Y33.131I0.634J1.455
G1X20.515
G2X19.356Y33.634I0.000J1.588
G1X19.281Y33.709
X19.206Y33.784
X19.130Y33.859
X19.055Y33.935
G2X18.748Y34.329I1.084J1.159
G2X18.419Y35.087I1.241J0.990
G2X18.327Y35.620I1.495J0.533
G1Y35.899
X17.885Y35.836
X17.810
G2X16.651Y36.339I0.000J1.588
G1X16.381Y36.671
G0Z5.080
G0X30.219Y64.106
G1Z-5.000F300.0
G1Y64.008F1000.0
X30.299Y64.021
X30.219Y64.106
G0Z5.080
G0X63.460Y0.001
G1Z-6.000F300.0
G1X0.040F1000.0
X0.004Y0.004
X0.000Y0.058
Y2.224
X63.500
Y4.446
X0.000
Y6.669
X63.500
Y8.891
X0.000
Y11.114
X63.500
Y13.336
X52.081
X52.156Y13.376
X52.330Y13.500
X52.486Y13.645
X52.633Y13.802
X52.757Y13.979
X52.857Y14.170
X52.932Y14.321
X53.021Y14.504
X53.086Y14.699
X53.126Y14.901
X53.139Y15.105
Y15.374
X53.183Y15.559
X63.500
Y17.781
X53.887
X53.917Y17.873
X53.974Y18.032
X54.014Y18.197
X54.036Y18.365
X54.085Y18.551
X54.111Y18.741
X54.155Y18.903
X54.182Y19.070
X54.191Y19.238
Y19.614
X54.178Y19.817
X54.141Y20.004
X63.500
Y22.226
X55.148
X55.153Y22.253
X55.298Y22.448
X55.412Y22.662
X55.505Y22.855
X55.571Y23.058
X55.639Y23.256
X55.680Y23.463
X55.694Y23.672
Y24.449
X63.500
Y26.671
X55.705
X55.777Y26.778
X55.877Y26.979
X55.946Y27.191
X56.014Y27.390
X56.056Y27.596
X56.070Y27.805
Y28.331
X56.048Y28.594
X56.070Y28.857
Y28.894
X63.500
Y31.116
X56.230
X56.278Y31.331
X56.295Y31.562
Y32.990
X56.285Y33.171
X56.256Y33.339
X63.500
Y35.561
X55.494
X55.432Y35.755
X55.342Y35.944
X55.228Y36.120
X55.093Y36.278
Y36.672
X55.079Y36.881
X55.038Y37.087
X54.970Y37.286
X54.903Y37.489
X54.811Y37.682
X54.757Y37.784
X63.500
Y40.006
X54.034
X54.027Y40.113
X53.985Y40.319
X53.917Y40.517
X53.851Y40.720
X53.758Y40.913
X53.651Y41.118
X53.515Y41.305
Y42.229
X63.500
Y44.451
X52.853
X52.758Y44.597
X52.648Y44.733
X52.671Y44.856
X52.722Y45.030
X52.753Y45.209
X52.763Y45.389
Y45.690
X52.749Y45.899
X52.708Y46.105
X52.640Y46.303
X52.574Y46.507
X52.493Y46.674
X63.500
Y48.896
X52.454
X52.440Y49.037
X52.384Y49.265
X52.388Y49.372
Y49.447
X52.379Y49.615
X52.352Y49.782
X52.308Y49.944
X52.286Y50.112
X52.246Y50.277
X52.189Y50.436
X52.162Y50.532
X52.141Y50.760
X52.087Y50.982
Y51.025
X52.081Y51.119
X53.207
X53.210Y51.163
X53.253Y51.376
X53.327Y51.582
X53.427Y51.777
X53.553Y51.954
X53.699Y52.110
X53.854Y52.255
X54.031Y52.381
X54.226Y52.482
X54.433Y52.555
X54.645Y52.599
X54.858Y52.613
X55.159
X55.389Y52.596
X55.625Y52.543
X55.859Y52.450
X56.081Y52.317
X56.281Y52.148
X56.451Y51.948
X56.583Y51.726
X56.676Y51.492
X56.729Y51.256
X56.739Y51.119
X63.500
G0Z5.080
G0X51.006Y53.341
G1Z-6.000F300.0
G1X63.500F1000.0
Y55.564
X50.265
X50.233Y55.631
X50.167Y55.830
X50.075Y56.020
X49.958Y56.196
X49.820Y56.354
X49.784Y56.448
X49.709Y56.674
X49.646Y56.871
X49.557Y57.058
X49.491Y57.257
X49.400Y57.446
X49.325Y57.596
X49.226Y57.786
X63.500
Y60.009
X48.079
X48.023Y60.117
X47.898Y60.294
X47.751Y60.451
X47.676Y60.526
X47.601Y60.601
X47.449Y60.744
X47.279Y60.866
X47.094Y60.964
X46.899Y61.037
X46.871Y61.256
X46.812Y61.471
X46.723Y61.678
X46.606Y61.868
X46.465Y62.038
X46.367Y62.226
X46.363Y62.231
X63.500
Y64.454
X44.637
X44.520Y64.584
X44.445Y64.659
X44.264Y64.825
X44.057Y64.963
X43.831Y65.066
X43.594Y65.132
X43.455Y65.244
X43.304Y65.339
X43.144Y65.416
X43.144Y65.454
Y65.679
X43.144Y65.717
X43.144Y65.754
Y65.830
X43.130Y66.039
X43.089Y66.245
X43.021Y66.443
X42.946Y66.668
X42.942Y66.676
X63.500
Y68.899
X40.441
G0Z5.080
G0X49.047Y13.336
G1Z-6.000F300.0
G1X0.000F1000.0
Y15.559
X46.599
X46.559Y15.599
X46.484Y15.674
X46.339Y15.829
X46.216Y16.003
X46.117Y16.191
X46.109Y16.200
X45.962Y16.357
X45.837Y16.534
X45.737Y16.725
X45.618Y16.990
X45.472Y17.159
X45.351Y17.346
X45.218Y17.541
X45.207Y17.552
X45.132Y17.628
X45.056Y17.703
X44.981Y17.778
X44.978Y17.781
X0.000
Y20.004
X43.357
X43.328Y20.032
X43.319Y20.041
X43.131Y20.139
X42.957Y20.263
X42.802Y20.408
X42.727Y20.483
X42.652Y20.558
X42.612Y20.597
X42.440Y20.547
X42.262Y20.516
X42.083Y20.506
X41.782
X41.570Y20.520
X41.359Y20.563
X41.156Y20.635
X40.967Y20.731
X40.956Y20.731
X40.730
X40.521Y20.745
X40.307Y20.789
X40.093Y20.865
X39.886Y20.974
X39.695Y21.115
X39.526Y21.284
X39.386Y21.475
X39.276Y21.681
X39.200Y21.896
X39.156Y22.110
X39.149Y22.226
X0.000
Y24.449
X38.091
Y24.573
X38.109Y24.814
X38.163Y25.048
X38.131Y25.078
X37.938Y25.210
X37.767Y25.368
X37.692Y25.443
X37.617Y25.518
X37.542Y25.593
X37.467Y25.668
X37.391Y25.743
X37.316Y25.819
X37.153Y25.996
X36.927Y26.090
X36.757Y26.129
X36.479Y25.974
X36.296Y25.884
X36.101Y25.819
X35.899Y25.779
X35.695Y25.766
X35.620
X35.417Y25.779
X35.215Y25.819
X35.020Y25.884
X34.836Y25.974
X34.645Y26.073
X34.468Y26.198
X34.310Y26.345
X34.235Y26.420
X34.160Y26.495
X34.009Y26.657
X33.999Y26.671
X0.000
Y28.894
X27.944
X27.922Y28.904
X27.882Y28.923
X27.654
X27.445Y28.936
X27.239Y28.978
X27.041Y29.046
X26.751Y29.150
X26.568Y29.169
X26.388Y29.210
X26.214Y29.271
X25.928Y29.373
X25.926
X25.682Y29.392
X25.443Y29.449
X25.400
X25.196Y29.462
X24.994Y29.501
X24.799Y29.567
X24.616Y29.656
X24.425Y29.755
X24.248Y29.880
X24.090Y30.027
X24.081Y30.035
X23.940Y30.107
X23.789Y30.182
X23.639Y30.257
X23.454Y30.353
X23.283Y30.472
X23.111Y30.581
X22.954Y30.712
X22.812Y30.783
X22.621Y30.882
X22.444Y31.007
X22.327Y31.116
X0.000
Y33.339
X18.384
X18.265Y33.506
X18.153Y33.563
X17.962Y33.663
X17.785Y33.788
X17.628Y33.935
X17.552Y34.010
X17.365Y34.218
X17.327Y34.240
X17.141Y34.335
X16.970Y34.454
X16.828Y34.542
X16.696Y34.645
X16.575Y34.761
X16.500Y34.836
X16.342Y35.008
X16.211Y35.200
X16.089Y35.344
X15.985Y35.501
X15.934Y35.561
X0.000
Y37.784
X14.530
X14.471Y37.842
X14.396Y37.917
X14.321Y37.993
X14.246Y38.068
X14.171Y38.143
X14.025Y38.299
X13.901Y38.473
X13.802Y38.662
X13.720Y38.744
X13.584Y38.888
X13.467Y39.047
X13.371Y39.220
X13.128Y39.251
X12.890Y39.320
X12.667Y39.425
X12.484Y39.520
X12.311Y39.639
X12.156Y39.781
X12.021Y39.941
X11.980Y40.006
X0.000
Y42.229
X9.470
X9.347Y42.289
X9.154Y42.421
X8.985Y42.577
X8.910Y42.652
X8.763Y42.809
X8.638Y42.986
X8.539Y43.177
X8.450Y43.360
X8.386Y43.552
X8.384Y43.554
X8.255Y43.690
X8.142Y43.841
X7.919Y43.909
X7.708Y44.009
X7.516Y44.108
X7.339Y44.233
X7.182Y44.380
X7.111Y44.451
X0.000
Y46.674
X5.843
X5.818Y46.758
X5.787Y46.937
X5.777Y47.118
Y47.343
X5.790Y47.547
X5.830Y47.749
X5.895Y47.944
X5.984Y48.127
X6.080Y48.313
X6.199Y48.484
X6.295Y48.637
X6.408Y48.779
X6.328Y48.896
X0.000
Y51.119
X5.104
X5.101Y51.176
Y51.219
X5.044Y51.458
X5.026Y51.702
Y52.153
X5.044Y52.397
X5.101Y52.635
Y52.904
X5.114Y53.113
X5.156Y53.319
X5.163Y53.341
X0.000
Y55.564
X5.927
Y57.338
X5.941Y57.547
X5.983Y57.753
X5.994Y57.786
X0.000
Y60.009
X6.829
Y60.193
X6.839Y60.374
X6.870Y60.553
X6.921Y60.727
X6.966Y60.933
X7.039Y61.135
X7.139Y61.325
X7.263Y61.499
X7.407Y61.654
X7.483Y61.729
X7.558Y61.804
X7.633Y61.879
X7.790Y62.026
X7.967Y62.151
X8.122Y62.231
X0.000
Y64.454
X16.624
X16.672Y64.480
X16.840Y64.549
X16.999Y64.688
X17.178Y64.806
X17.371Y64.899
X17.572Y64.964
X17.771Y65.032
X17.977Y65.074
X18.186Y65.088
X18.261
X18.465Y65.074
X18.666Y65.035
X18.862Y64.970
X19.045Y64.880
X19.218Y64.792
X19.379Y64.683
X19.431Y64.735
X19.506Y64.810
X19.581Y64.885
X19.737Y65.030
X19.914Y65.156
X20.109Y65.257
X20.315Y65.330
X20.528Y65.374
X20.741Y65.388
X21.107
Y65.454
X21.108Y65.491
X21.107Y65.529
Y65.604
X21.116Y65.772
X21.143Y65.939
X21.187Y66.101
X21.222Y66.331
X21.291Y66.558
X21.348Y66.676
X0.000
Y68.899
X23.858
X23.869Y68.956
X23.941Y69.160
X24.038Y69.351
X24.159Y69.525
X24.247Y69.667
X24.350Y69.799
X24.466Y69.920
X24.541Y69.995
X24.712Y70.153
X24.905Y70.284
X24.917Y70.296
X25.073Y70.441
X25.250Y70.567
X25.444Y70.668
X25.651Y70.741
X25.864Y70.784
X26.076Y70.799
X26.120
X26.214Y70.826
X26.413Y70.894
X26.619Y70.935
X26.828Y70.949
X26.903
X27.107Y70.936
X27.308Y70.896
X27.504Y70.831
X27.687Y70.742
X27.878Y70.643
X28.055Y70.518
X28.213Y70.371
X28.429Y70.122
X28.481Y70.122
X29.007
X29.234Y70.106
X29.458Y70.057
X29.672Y69.976
X29.871Y69.867
X30.070Y69.976
X30.285Y70.057
X30.509Y70.106
X30.736Y70.122
X31.186
X31.390Y70.109
X31.592Y70.070
X31.787Y70.004
X31.970Y69.915
X32.248Y69.759
X32.438Y69.802
X32.632Y69.821
X32.777Y69.946
X32.937Y70.054
X33.108Y70.141
X33.291Y70.230
X33.486Y70.295
X33.688Y70.335
X33.892Y70.348
X34.117
X34.356Y70.330
X34.590Y70.276
X34.611Y70.296
X34.768Y70.443
X34.945Y70.567
X35.137Y70.667
X35.320Y70.756
X35.515Y70.821
X35.717Y70.861
X35.921Y70.874
X36.146
X36.350Y70.861
X36.552Y70.821
X36.747Y70.756
X36.930Y70.667
X37.143Y70.554
X37.329Y70.513
X37.510Y70.450
X37.682Y70.366
X37.832Y70.291
X38.037Y70.183
X38.224Y70.047
X38.401
X38.581Y70.037
X38.760Y70.006
X38.934Y69.955
X39.128Y69.914
X39.315Y69.849
X39.529Y69.778
X39.733Y69.677
X39.921Y69.547
X40.086Y69.394
X40.233Y69.236
X40.358Y69.059
X40.441Y68.899
G0Z5.080
G0X63.500Y71.121
G1Z-6.000F300.0
G1X0.000F1000.0
Y73.344
X63.500
Y75.566
X0.000
Y77.789
X63.500
Y80.011
X0.000
Y82.234
X63.500
Y84.456
X0.000
Y86.678
X63.500
Y88.842
X63.496Y88.896
X63.460Y88.899
X0.040
G0Z5.080
G0X29.690Y28.894
G1Z-6.000F300.0
G1X31.643F1000.0
G0Z5.080
G0X40.967Y20.731
G1Z-6.000F300.0
G1X40.956Y20.731F1000.0
X40.730
G2X39.143Y22.319I0.000J1.588
G1Y22.472
X38.819Y22.738
X38.744Y22.813
G2X38.373Y23.338I1.084J1.159
G1X38.214Y23.735
G2X38.091Y24.348I1.464J0.613
G1Y24.573
G2X38.163Y25.048I1.588J0.000
G1X38.131Y25.078
G2X37.767Y25.368I0.796J1.374
G1X37.692Y25.443
X37.617Y25.518
X37.542Y25.593
X37.467Y25.668
X37.391Y25.743
X37.316Y25.819
X37.153Y25.996
X36.927Y26.090
X36.757Y26.129
X36.479Y25.974
G2X35.695Y25.766I-0.784J1.380
G1X35.620
G2X34.836Y25.974I0.000J1.588
G2X34.310Y26.345I0.634J1.455
G1X34.235Y26.420
X34.160Y26.495
G2X33.709Y27.251I1.084J1.159
G1X33.665Y27.271
X33.591Y27.269
X33.516
G2X32.903Y27.393I0.000J1.588
G2X31.835Y28.298I0.388J1.539
G2X31.632Y28.962I1.380J0.784
G1X31.624Y28.969
G2X31.229Y29.275I0.765J1.391
G1X31.166Y29.338
X31.082Y29.322
G2X30.360Y29.148I-0.722J1.414
G1X30.040
G2X28.932Y28.697I-1.108J1.137
G1X28.707
G2X27.922Y28.904I0.000J1.588
G1X27.882Y28.923
X27.654
G2X27.041Y29.046I0.000J1.588
G1X26.751Y29.150
G2X26.214Y29.271I0.077J1.586
G1X25.928Y29.373
X25.926
G2X25.443Y29.449I0.000J1.588
G1X25.400
G2X24.616Y29.656I0.000J1.588
G2X24.090Y30.027I0.634J1.455
G1X24.081Y30.035
X23.940Y30.107
X23.789Y30.182
X23.639Y30.257
X23.283Y30.472
X22.954Y30.712
X22.812Y30.783
G2X22.287Y31.154I0.634J1.455
G1X22.212Y31.229
X22.136Y31.304
X21.944Y31.520
X21.931Y31.526
X21.535Y31.685
X21.385Y31.760
X21.246Y31.829
X21.029Y31.901
X20.633Y32.060
X20.494Y32.129
X20.278Y32.202
X19.882Y32.361
X19.731Y32.436
X19.581Y32.511
X19.431Y32.587
X19.280Y32.662
X19.130Y32.737
G2X18.604Y33.108I0.634J1.455
G1X18.529Y33.183
X18.265Y33.506
X18.153Y33.563
G2X17.628Y33.935I0.634J1.455
G1X17.552Y34.010
X17.365Y34.218
X17.327Y34.240
X16.970Y34.454
G2X16.575Y34.761I0.765J1.391
G1X16.500Y34.836
G2X16.211Y35.200I1.084J1.159
G1X15.985Y35.501
X15.760Y35.802
X15.517Y36.133
X15.306Y36.481
X15.298Y36.490
G2X14.927Y37.015I1.084J1.159
G1X14.768Y37.412
X14.695Y37.627
X14.546Y37.767
X14.471Y37.842
X14.396Y37.917
X14.321Y37.993
X14.246Y38.068
X14.171Y38.143
G2X13.802Y38.662I1.084J1.159
G1X13.720Y38.744
G2X13.371Y39.220I1.084J1.159
G2X12.667Y39.425I0.080J1.585
G2X11.910Y40.116I0.634J1.455
G2X11.642Y40.613I1.241J0.990
G2X11.240Y40.923I0.757J1.395
G2X10.869Y41.449I1.084J1.159
G1X10.836Y41.509
X10.638Y41.604
G2X10.113Y41.975I0.634J1.455
G1X10.038Y42.051
X10.008Y42.079
G2X8.985Y42.577I0.137J1.582
G1X8.910Y42.652
G2X8.539Y43.177I1.084J1.159
G1X8.386Y43.552
X8.384Y43.554
X8.142Y43.841
G2X7.708Y44.009I0.349J1.549
G2X7.182Y44.380I0.634J1.455
G1X7.107Y44.455
X7.032Y44.530
G2X6.660Y45.056I1.084J1.159
G1X6.585Y45.206
X6.432Y45.581
X6.430Y45.583
X6.355Y45.658
G2X5.869Y46.584I1.084J1.159
G2X5.777Y47.118I1.495J0.533
G1Y47.343
G2X5.984Y48.127I1.588J0.000
G1X6.199Y48.484
X6.408Y48.779
X6.210Y49.114
X6.065Y49.459
X5.754Y49.716
X5.679Y49.791
G2X5.224Y50.562I1.084J1.159
G2X5.101Y51.176I1.464J0.613
G1Y51.219
G2X5.026Y51.702I1.512J0.483
G1Y52.153
G2X5.101Y52.635I1.588J0.000
G1Y52.904
G2X5.224Y53.517I1.588J0.000
G1X5.299Y53.743
X5.374Y53.968
G2X5.829Y54.740I1.539J-0.388
G1X5.904Y54.815
X5.927Y54.839
Y57.338
G2X6.051Y57.951I1.588J0.000
G1X6.210Y58.347
G2X6.581Y58.873I1.455J-0.634
G1X6.656Y58.948
X6.981Y59.215
G2X6.829Y59.893I1.435J0.678
G1Y60.193
G2X6.921Y60.727I1.588J0.000
G2X7.407Y61.654I1.570J-0.233
G1X7.483Y61.729
X7.558Y61.804
X7.633Y61.879
G2X8.158Y62.250I1.159J-1.084
G2X8.638Y62.428I0.784J-1.380
G1X8.760Y62.555
G2X9.286Y62.926I1.159J-1.084
G2X10.070Y63.134I0.784J-1.380
G1X10.295
X10.378Y63.132
X10.563Y63.227
X10.828Y63.347
X10.864Y63.382
X10.939Y63.457
G2X12.099Y63.960I1.159J-1.084
G1X12.475
X12.888Y63.906
X13.301Y63.960
X13.527
G2X14.523Y63.608I0.000J-1.588
G2X15.024Y63.270I-0.621J-1.461
G1X15.298Y63.607
X15.373Y63.683
X15.448Y63.758
G2X15.974Y64.129I1.159J-1.084
G1X16.365Y64.287
G2X16.840Y64.549I0.994J-1.237
G2X17.572Y64.964I1.121J-1.124
G2X18.186Y65.088I0.613J-1.464
G1X18.261
G2X19.045Y64.880I0.000J-1.588
G1X19.379Y64.683
X19.431Y64.735
X19.506Y64.810
X19.581Y64.885
G2X20.741Y65.388I1.159J-1.084
G1X21.107
Y65.454
X21.108Y65.491
X21.107Y65.529
Y65.604
G2X21.187Y66.101I1.588J0.000
G2X21.685Y67.139I1.583J-0.121
G1X21.761Y67.215
G2X22.920Y67.718I1.159J-1.084
G1X23.296
G2X23.863Y67.613I0.000J-1.587
G1X23.812Y68.009
Y68.535
G2X24.159Y69.525I1.588J0.000
G2X24.466Y69.920I1.391J-0.765
G1X24.541Y69.995
G2X24.905Y70.284I1.159J-1.084
G1X24.917Y70.296
G2X26.076Y70.799I1.159J-1.084
G1X26.120
X26.214Y70.826
G2X26.828Y70.949I0.613J-1.464
G1X26.903
G2X27.687Y70.742I0.000J-1.588
G2X28.213Y70.371I-0.634J-1.455
G1X28.429Y70.122
X28.481Y70.122
X29.007
G2X29.871Y69.867I0.000J-1.588
G2X30.736Y70.122I0.864J-1.332
G1X31.186
G2X31.970Y69.915I0.000J-1.588
G1X32.248Y69.759
X32.632Y69.821
G2X33.108Y70.141I1.109J-1.136
G2X33.892Y70.348I0.784J-1.380
G1X34.117
G2X34.590Y70.276I0.000J-1.587
G1X34.611Y70.296
G2X35.137Y70.667I1.159J-1.084
G2X35.921Y70.874I0.784J-1.380
G1X36.146
G2X36.930Y70.667I0.000J-1.588
G1X37.143Y70.554
G2X37.682Y70.366I-0.245J-1.568
G1X37.832Y70.291
G2X38.224Y70.047I-0.634J-1.455
G1X38.401
G2X38.934Y69.955I0.000J-1.588
G1X39.315Y69.849
G2X40.086Y69.394I-0.388J-1.539
G2X40.457Y68.868I-1.084J-1.159
G1X40.616Y68.472
G2X40.735Y67.980I-1.464J-0.613
G1X40.803Y67.672
X41.181Y67.718
X41.256
G2X41.870Y67.594I0.000J-1.587
G2X43.021Y66.443I-0.388J-1.539
G2X43.144Y65.830I-1.464J-0.613
G1Y65.754
X43.144Y65.717
X43.144Y65.679
Y65.454
X43.144Y65.416
G2X43.594Y65.132I-0.610J-1.466
G2X44.445Y64.659I-0.309J-1.557
G1X44.520Y64.584
X44.707Y64.376
G2X45.121Y64.058I-0.745J-1.402
G1X45.196Y63.983
G2X45.567Y63.457I-1.084J-1.159
G1X45.726Y63.061
X45.749Y63.004
X45.865Y62.788
X45.948Y62.706
X46.023Y62.630
X46.098Y62.555
G2X46.465Y62.038I-1.084J-1.159
G2X46.899Y61.037I-1.151J-1.093
